; generated by PrusaSlicer 2.3.0-alpha3+win64 on 2020-11-10 at 15:58:22 UTC


;
;

;
;
; 

; external perimeters extrusion width = 0.65mm
; perimeters extrusion width = 0.65mm
; infill extrusion width = 0.65mm
; solid infill extrusion width = 0.65mm
; top infill extrusion width = 0.60mm
; first layer extrusion width = 0.65mm

M73 P0 R5
M73 Q0 S5
M201 X1000 Y1000 Z200 E5000 ; sets maximum accelerations, mm/sec^2
M203 X200 Y200 Z12 E120 ; sets maximum feedrates, mm/sec
M204 P1250 R1250 T1250 ; sets acceleration (P, T) and retract acceleration (R), mm/sec^2
M205 X8.00 Y8.00 Z0.40 E4.50 ; sets the jerk limits, mm/sec
M205 S0 T0 ; sets the minimum extruding and travel feed rate, mm/sec
M107 ; disable fan
;TYPE:Custom
M862.3 P "MK3S" ; printer model check
M862.1 P0.6 ; nozzle diameter check
M115 U3.9.1 ; tell printer latest fw version
G90 ; use absolute coordinates
M83 ; extruder relative mode
M104 S215 ; set extruder temp
M140 S60 ; set bed temp
M190 S60 ; wait for bed temp
M109 S215 ; wait for extruder temp
G28 W ; home all without mesh bed level
G80 ; mesh bed leveling
G1 Y-3.0 F1000.0 ; go outside print area
G92 E0.0
G1 X60.0 E9.0 F1000.0 ; intro line
M73 P1 R5
M73 Q1 S5
G1 X100.0 E12.5 F1000.0 ; intro line
G92 E0.0
M221 S95
G21 ; set units to millimeters
G90 ; use absolute coordinates
M83 ; use relative distances for extrusion
M900 K0.04 ; Filament gcode LA 1.5
M900 K18 ; Filament gcode LA 1.0
;Z:0.2
;HEIGHT:0.2
;BEFORE_LAYER_CHANGE
G92 E0.0
;0.2


G1 E-0.80000 F2100.00000 ; retract
G1 Z0.600 F10800.000 ; lift Z
;AFTER_LAYER_CHANGE
;0.2
; printing object Shape-Box 1 id:0 copy 0
M73 P2 R5
M73 Q2 S5
G1 X49.770 Y49.494 ; move to first infill point
G1 Z0.200 ; restore layer Z
G1 E0.80000 F2100.00000 ; unretract
M204 S1000 ; adjust acceleration
;TYPE:Solid infill
G1 F1200.000
G1 X30.504 Y49.494 E0.98122 ; infill
G1 X30.504 Y48.881 E0.03119 ; infill
G1 X49.496 Y48.881 E0.96730 ; infill
G1 X49.496 Y48.269 E0.03119 ; infill
G1 X30.504 Y48.269 E0.96730 ; infill
M73 P3 R5
M73 Q3 S5
G1 X30.504 Y47.656 E0.03119 ; infill
G1 X49.496 Y47.656 E0.96730 ; infill
G1 X49.496 Y47.044 E0.03119 ; infill
G1 X30.504 Y47.044 E0.96730 ; infill
G1 X30.504 Y46.431 E0.03119 ; infill
G1 X49.496 Y46.431 E0.96730 ; infill
M73 P4 R5
M73 Q4 S5
G1 X49.496 Y45.819 E0.03119 ; infill
G1 X30.504 Y45.819 E0.96730 ; infill
G1 X30.504 Y45.206 E0.03119 ; infill
G1 X49.496 Y45.206 E0.96730 ; infill
G1 X49.496 Y44.594 E0.03119 ; infill
G1 X30.504 Y44.594 E0.96730 ; infill
M73 P5 R5
M73 Q5 S5
G1 X30.504 Y43.981 E0.03119 ; infill
G1 X49.496 Y43.981 E0.96730 ; infill
G1 X49.496 Y43.369 E0.03119 ; infill
G1 X30.504 Y43.369 E0.96730 ; infill
G1 X30.504 Y42.756 E0.03119 ; infill
G1 X49.496 Y42.756 E0.96730 ; infill
M73 P6 R5
M73 Q6 S5
G1 X49.496 Y42.144 E0.03119 ; infill
G1 X30.504 Y42.144 E0.96730 ; infill
G1 X30.504 Y41.531 E0.03119 ; infill
G1 X49.496 Y41.531 E0.96730 ; infill
G1 X49.496 Y40.919 E0.03119 ; infill
G1 X30.504 Y40.919 E0.96730 ; infill
G1 X30.504 Y40.306 E0.03119 ; infill
M73 P7 R5
G1 X49.496 Y40.306 E0.96730 ; infill
M73 Q7 S5
G1 X49.496 Y39.694 E0.03119 ; infill
G1 X30.504 Y39.694 E0.96730 ; infill
G1 X30.504 Y39.081 E0.03119 ; infill
G1 X49.496 Y39.081 E0.96730 ; infill
G1 X49.496 Y38.469 E0.03119 ; infill
G1 X30.504 Y38.469 E0.96730 ; infill
M73 P8 R5
M73 Q8 S5
G1 X30.504 Y37.856 E0.03119 ; infill
G1 X49.496 Y37.856 E0.96730 ; infill
G1 X49.496 Y37.244 E0.03119 ; infill
G1 X30.504 Y37.244 E0.96730 ; infill
G1 X30.504 Y36.631 E0.03119 ; infill
G1 X49.496 Y36.631 E0.96730 ; infill
M73 P9 R5
M73 Q9 S5
G1 X49.496 Y36.019 E0.03119 ; infill
G1 X30.504 Y36.019 E0.96730 ; infill
G1 X30.504 Y35.406 E0.03119 ; infill
G1 X49.496 Y35.406 E0.96730 ; infill
G1 X49.496 Y34.794 E0.03119 ; infill
G1 X30.504 Y34.794 E0.96730 ; infill
M73 P10 R5
M73 Q10 S5
G1 X30.504 Y34.181 E0.03119 ; infill
G1 X49.496 Y34.181 E0.96730 ; infill
G1 X49.496 Y33.569 E0.03119 ; infill
G1 X30.504 Y33.569 E0.96730 ; infill
G1 X30.504 Y32.956 E0.03119 ; infill
G1 X49.496 Y32.956 E0.96730 ; infill
M73 P11 R5
M73 Q11 S5
G1 X49.496 Y32.344 E0.03119 ; infill
G1 X30.504 Y32.344 E0.96730 ; infill
G1 X30.504 Y31.731 E0.03119 ; infill
G1 X49.496 Y31.731 E0.96730 ; infill
G1 X49.496 Y31.119 E0.03119 ; infill
G1 X30.504 Y31.119 E0.96730 ; infill
M73 P12 R5
G1 X30.504 Y30.506 E0.03119 ; infill
M73 Q12 S5
G1 X49.770 Y30.506 E0.98122 ; infill
; stop printing object Shape-Box 1 id:0 copy 0
G1 F8640.000
G1 X46.478 Y30.506 E-0.76000 ; wipe and retract
G1 E-0.04000 F2100.00000 ; retract
G1 Z0.800 F10800.000 ; lift Z
G1 X125.000 Y40.000 F10800.000 ; move to origin position for next object
M104 S215 ; set temperature
;Z:0.2
;HEIGHT:0.2
;BEFORE_LAYER_CHANGE
G92 E0.0
;0.2


G1 Z0.200 F10800.000 ; move to next layer (1)
;AFTER_LAYER_CHANGE
;0.2
; printing object Shape-Box 2 id:0 copy 0
G1 Z0.800 ; lift Z
G1 Y205; move bed forwards for inspection
G4 S10; pause for inspection
G1 X134.770 Y49.494 ; move to first infill point
G1 Z0.200 ; restore layer Z
G1 E0.80000 F2100.00000 ; unretract
G1 F1200.000
G1 X115.504 Y49.494 E0.98122 ; infill
M73 P13 R5
M73 Q13 S5
G1 X115.504 Y48.881 E0.03119 ; infill
G1 X134.496 Y48.881 E0.96730 ; infill
G1 X134.496 Y48.269 E0.03119 ; infill
G1 X115.504 Y48.269 E0.96730 ; infill
M73 P13 R4
G1 X115.504 Y47.656 E0.03119 ; infill
G1 X134.496 Y47.656 E0.96730 ; infill
M73 P14 R4
M73 Q14 S5
G1 X134.496 Y47.044 E0.03119 ; infill
G1 X115.504 Y47.044 E0.96730 ; infill
G1 X115.504 Y46.431 E0.03119 ; infill
G1 X134.496 Y46.431 E0.96730 ; infill
M73 Q14 S4
G1 X134.496 Y45.819 E0.03119 ; infill
G1 X115.504 Y45.819 E0.96730 ; infill
M73 P15 R4
M73 Q15 S4
G1 X115.504 Y45.206 E0.03119 ; infill
G1 X134.496 Y45.206 E0.96730 ; infill
G1 X134.496 Y44.594 E0.03119 ; infill
G1 X115.504 Y44.594 E0.96730 ; infill
G1 X115.504 Y43.981 E0.03119 ; infill
G1 X134.496 Y43.981 E0.96730 ; infill
M73 P16 R4
G1 X134.496 Y43.369 E0.03119 ; infill
G1 X115.504 Y43.369 E0.96730 ; infill
M73 Q16 S4
G1 X115.504 Y42.756 E0.03119 ; infill
G1 X134.496 Y42.756 E0.96730 ; infill
G1 X134.496 Y42.144 E0.03119 ; infill
G1 X115.504 Y42.144 E0.96730 ; infill
G1 X115.504 Y41.531 E0.03119 ; infill
G1 X134.496 Y41.531 E0.96730 ; infill
M73 P17 R4
M73 Q17 S4
G1 X134.496 Y40.919 E0.03119 ; infill
G1 X115.504 Y40.919 E0.96730 ; infill
G1 X115.504 Y40.306 E0.03119 ; infill
G1 X134.496 Y40.306 E0.96730 ; infill
G1 X134.496 Y39.694 E0.03119 ; infill
G1 X115.504 Y39.694 E0.96730 ; infill
M73 P18 R4
M73 Q18 S4
G1 X115.504 Y39.081 E0.03119 ; infill
G1 X134.496 Y39.081 E0.96730 ; infill
G1 X134.496 Y38.469 E0.03119 ; infill
G1 X115.504 Y38.469 E0.96730 ; infill
G1 X115.504 Y37.856 E0.03119 ; infill
G1 X134.496 Y37.856 E0.96730 ; infill
M73 P19 R4
M73 Q19 S4
G1 X134.496 Y37.244 E0.03119 ; infill
G1 X115.504 Y37.244 E0.96730 ; infill
G1 X115.504 Y36.631 E0.03119 ; infill
G1 X134.496 Y36.631 E0.96730 ; infill
G1 X134.496 Y36.019 E0.03119 ; infill
G1 X115.504 Y36.019 E0.96730 ; infill
M73 P20 R4
M73 Q20 S4
G1 X115.504 Y35.406 E0.03119 ; infill
G1 X134.496 Y35.406 E0.96730 ; infill
G1 X134.496 Y34.794 E0.03119 ; infill
G1 X115.504 Y34.794 E0.96730 ; infill
G1 X115.504 Y34.181 E0.03119 ; infill
G1 X134.496 Y34.181 E0.96730 ; infill
M73 P21 R4
M73 Q21 S4
G1 X134.496 Y33.569 E0.03119 ; infill
G1 X115.504 Y33.569 E0.96730 ; infill
G1 X115.504 Y32.956 E0.03119 ; infill
G1 X134.496 Y32.956 E0.96730 ; infill
G1 X134.496 Y32.344 E0.03119 ; infill
G1 X115.504 Y32.344 E0.96730 ; infill
M73 P22 R4
G1 X115.504 Y31.731 E0.03119 ; infill
G1 X134.496 Y31.731 E0.96730 ; infill
M73 Q22 S4
G1 X134.496 Y31.119 E0.03119 ; infill
G1 X115.504 Y31.119 E0.96730 ; infill
G1 X115.504 Y30.506 E0.03119 ; infill
G1 X134.770 Y30.506 E0.98122 ; infill
; stop printing object Shape-Box 2 id:0 copy 0
M73 P23 R4
G1 F8640.000
G1 X131.478 Y30.506 E-0.76000 ; wipe and retract
G1 E-0.04000 F2100.00000 ; retract
G1 Z0.800 F10800.000 ; lift Z
G1 X210.000 Y40.000 F10800.000 ; move to origin position for next object
M104 S215 ; set temperature
;Z:0.2
;HEIGHT:0.2
;BEFORE_LAYER_CHANGE
G92 E0.0
;0.2


M73 Q23 S4
G1 Z0.200 F10800.000 ; move to next layer (2)
;AFTER_LAYER_CHANGE
;0.2
; printing object Shape-Box 3 id:0 copy 0
G1 Z0.800 ; lift Z
G1 Y205; move bed forwards for inspection
G4 S10; pause for inspection
G1 X219.770 Y49.494 ; move to first infill point
G1 Z0.200 ; restore layer Z
G1 E0.80000 F2100.00000 ; unretract
G1 F1200.000
G1 X200.504 Y49.494 E0.98122 ; infill
G1 X200.504 Y48.881 E0.03119 ; infill
G1 X219.496 Y48.881 E0.96730 ; infill
M73 P24 R4
M73 Q24 S4
G1 X219.496 Y48.269 E0.03119 ; infill
G1 X200.504 Y48.269 E0.96730 ; infill
G1 X200.504 Y47.656 E0.03119 ; infill
G1 X219.496 Y47.656 E0.96730 ; infill
G1 X219.496 Y47.044 E0.03119 ; infill
G1 X200.504 Y47.044 E0.96730 ; infill
M73 P25 R4
M73 Q25 S4
G1 X200.504 Y46.431 E0.03119 ; infill
G1 X219.496 Y46.431 E0.96730 ; infill
G1 X219.496 Y45.819 E0.03119 ; infill
G1 X200.504 Y45.819 E0.96730 ; infill
G1 X200.504 Y45.206 E0.03119 ; infill
G1 X219.496 Y45.206 E0.96730 ; infill
G1 X219.496 Y44.594 E0.03119 ; infill
M73 P26 R4
G1 X200.504 Y44.594 E0.96730 ; infill
M73 Q26 S4
G1 X200.504 Y43.981 E0.03119 ; infill
G1 X219.496 Y43.981 E0.96730 ; infill
G1 X219.496 Y43.369 E0.03119 ; infill
G1 X200.504 Y43.369 E0.96730 ; infill
G1 X200.504 Y42.756 E0.03119 ; infill
G1 X219.496 Y42.756 E0.96730 ; infill
M73 P27 R4
M73 Q27 S4
G1 X219.496 Y42.144 E0.03119 ; infill
G1 X200.504 Y42.144 E0.96730 ; infill
G1 X200.504 Y41.531 E0.03119 ; infill
G1 X219.496 Y41.531 E0.96730 ; infill
G1 X219.496 Y40.919 E0.03119 ; infill
G1 X200.504 Y40.919 E0.96730 ; infill
M73 P28 R4
M73 Q28 S4
G1 X200.504 Y40.306 E0.03119 ; infill
G1 X219.496 Y40.306 E0.96730 ; infill
G1 X219.496 Y39.694 E0.03119 ; infill
G1 X200.504 Y39.694 E0.96730 ; infill
G1 X200.504 Y39.081 E0.03119 ; infill
G1 X219.496 Y39.081 E0.96730 ; infill
M73 P29 R4
M73 Q29 S4
G1 X219.496 Y38.469 E0.03119 ; infill
G1 X200.504 Y38.469 E0.96730 ; infill
G1 X200.504 Y37.856 E0.03119 ; infill
G1 X219.496 Y37.856 E0.96730 ; infill
G1 X219.496 Y37.244 E0.03119 ; infill
G1 X200.504 Y37.244 E0.96730 ; infill
M73 P30 R4
M73 Q30 S4
G1 X200.504 Y36.631 E0.03119 ; infill
G1 X219.496 Y36.631 E0.96730 ; infill
G1 X219.496 Y36.019 E0.03119 ; infill
G1 X200.504 Y36.019 E0.96730 ; infill
G1 X200.504 Y35.406 E0.03119 ; infill
G1 X219.496 Y35.406 E0.96730 ; infill
M73 P31 R4
G1 X219.496 Y34.794 E0.03119 ; infill
G1 X200.504 Y34.794 E0.96730 ; infill
M73 Q31 S4
G1 X200.504 Y34.181 E0.03119 ; infill
G1 X219.496 Y34.181 E0.96730 ; infill
G1 X219.496 Y33.569 E0.03119 ; infill
G1 X200.504 Y33.569 E0.96730 ; infill
M73 P32 R4
G1 X200.504 Y32.956 E0.03119 ; infill
G1 X219.496 Y32.956 E0.96730 ; infill
M73 Q32 S4
G1 X219.496 Y32.344 E0.03119 ; infill
G1 X200.504 Y32.344 E0.96730 ; infill
G1 X200.504 Y31.731 E0.03119 ; infill
G1 X219.496 Y31.731 E0.96730 ; infill
M73 P32 R3
G1 X219.496 Y31.119 E0.03119 ; infill
M73 P33 R3
G1 X200.504 Y31.119 E0.96730 ; infill
M73 Q33 S4
G1 X200.504 Y30.506 E0.03119 ; infill
G1 X219.770 Y30.506 E0.98122 ; infill
; stop printing object Shape-Box 3 id:0 copy 0
G1 F8640.000
G1 X216.478 Y30.506 E-0.76000 ; wipe and retract
M73 Q33 S3
G1 E-0.04000 F2100.00000 ; retract
G1 Z0.800 F10800.000 ; lift Z
G1 X40.000 Y105.000 F10800.000 ; move to origin position for next object
M104 S215 ; set temperature
;Z:0.2
;HEIGHT:0.2
;BEFORE_LAYER_CHANGE
G92 E0.0
;0.2


M73 P34 R3
M73 Q34 S3
G1 Z0.200 F10800.000 ; move to next layer (3)
;AFTER_LAYER_CHANGE
;0.2
; printing object Shape-Box 4 id:0 copy 0
G1 Z0.800 ; lift Z
G1 Y205; move bed forwards for inspection
G4 S10; pause for inspection
G1 X49.770 Y114.494 ; move to first infill point
G1 Z0.200 ; restore layer Z
G1 E0.80000 F2100.00000 ; unretract
G1 F1200.000
G1 X30.504 Y114.494 E0.98122 ; infill
G1 X30.504 Y113.881 E0.03119 ; infill
G1 X49.496 Y113.881 E0.96730 ; infill
G1 X49.496 Y113.269 E0.03119 ; infill
G1 X30.504 Y113.269 E0.96730 ; infill
M73 P35 R3
M73 Q35 S3
G1 X30.504 Y112.656 E0.03119 ; infill
G1 X49.496 Y112.656 E0.96730 ; infill
G1 X49.496 Y112.044 E0.03119 ; infill
G1 X30.504 Y112.044 E0.96730 ; infill
G1 X30.504 Y111.431 E0.03119 ; infill
G1 X49.496 Y111.431 E0.96730 ; infill
M73 P36 R3
M73 Q36 S3
G1 X49.496 Y110.819 E0.03119 ; infill
G1 X30.504 Y110.819 E0.96730 ; infill
G1 X30.504 Y110.206 E0.03119 ; infill
G1 X49.496 Y110.206 E0.96730 ; infill
G1 X49.496 Y109.594 E0.03119 ; infill
G1 X30.504 Y109.594 E0.96730 ; infill
M73 P37 R3
M73 Q37 S3
G1 X30.504 Y108.981 E0.03119 ; infill
G1 X49.496 Y108.981 E0.96730 ; infill
G1 X49.496 Y108.369 E0.03119 ; infill
G1 X30.504 Y108.369 E0.96730 ; infill
G1 X30.504 Y107.756 E0.03119 ; infill
G1 X49.496 Y107.756 E0.96730 ; infill
M73 P38 R3
M73 Q38 S3
G1 X49.496 Y107.144 E0.03119 ; infill
G1 X30.504 Y107.144 E0.96730 ; infill
G1 X30.504 Y106.531 E0.03119 ; infill
G1 X49.496 Y106.531 E0.96730 ; infill
G1 X49.496 Y105.919 E0.03119 ; infill
G1 X30.504 Y105.919 E0.96730 ; infill
M73 P39 R3
M73 Q39 S3
G1 X30.504 Y105.306 E0.03119 ; infill
G1 X49.496 Y105.306 E0.96730 ; infill
G1 X49.496 Y104.694 E0.03119 ; infill
G1 X30.504 Y104.694 E0.96730 ; infill
G1 X30.504 Y104.081 E0.03119 ; infill
G1 X49.496 Y104.081 E0.96730 ; infill
M73 Q40 S3
G1 X49.496 Y103.469 E0.03119 ; infill
G1 X30.504 Y103.469 E0.96730 ; infill
M73 P40 R3
G1 X30.504 Y102.856 E0.03119 ; infill
G1 X49.496 Y102.856 E0.96730 ; infill
G1 X49.496 Y102.244 E0.03119 ; infill
G1 X30.504 Y102.244 E0.96730 ; infill
G1 X30.504 Y101.631 E0.03119 ; infill
G1 X49.496 Y101.631 E0.96730 ; infill
M73 P41 R3
M73 Q41 S3
G1 X49.496 Y101.019 E0.03119 ; infill
G1 X30.504 Y101.019 E0.96730 ; infill
G1 X30.504 Y100.406 E0.03119 ; infill
G1 X49.496 Y100.406 E0.96730 ; infill
G1 X49.496 Y99.794 E0.03119 ; infill
G1 X30.504 Y99.794 E0.96730 ; infill
M73 P42 R3
M73 Q42 S3
G1 X30.504 Y99.181 E0.03119 ; infill
G1 X49.496 Y99.181 E0.96730 ; infill
G1 X49.496 Y98.569 E0.03119 ; infill
G1 X30.504 Y98.569 E0.96730 ; infill
G1 X30.504 Y97.956 E0.03119 ; infill
G1 X49.496 Y97.956 E0.96730 ; infill
M73 P43 R3
M73 Q43 S3
G1 X49.496 Y97.344 E0.03119 ; infill
G1 X30.504 Y97.344 E0.96730 ; infill
G1 X30.504 Y96.731 E0.03119 ; infill
G1 X49.496 Y96.731 E0.96730 ; infill
G1 X49.496 Y96.119 E0.03119 ; infill
G1 X30.504 Y96.119 E0.96730 ; infill
M73 P44 R3
M73 Q44 S3
G1 X30.504 Y95.506 E0.03119 ; infill
G1 X49.770 Y95.506 E0.98122 ; infill
; stop printing object Shape-Box 4 id:0 copy 0
G1 F8640.000
G1 X46.478 Y95.506 E-0.76000 ; wipe and retract
G1 E-0.04000 F2100.00000 ; retract
G1 Z0.800 F10800.000 ; lift Z
G1 X125.000 Y105.000 F10800.000 ; move to origin position for next object
M104 S215 ; set temperature
;Z:0.2
;HEIGHT:0.2
;BEFORE_LAYER_CHANGE
G92 E0.0
;0.2


G1 Z0.200 F10800.000 ; move to next layer (4)
;AFTER_LAYER_CHANGE
;0.2
; printing object Shape-Box 5 id:0 copy 0
G1 Z0.800 ; lift Z
G1 Y205; move bed forwards for inspection
G4 S10; pause for inspection
G1 X134.770 Y114.494 ; move to first infill point
G1 Z0.200 ; restore layer Z
G1 E0.80000 F2100.00000 ; unretract
G1 F1200.000
G1 X115.504 Y114.494 E0.98122 ; infill
M73 P45 R3
M73 Q45 S3
G1 X115.504 Y113.881 E0.03119 ; infill
G1 X134.496 Y113.881 E0.96730 ; infill
G1 X134.496 Y113.269 E0.03119 ; infill
G1 X115.504 Y113.269 E0.96730 ; infill
G1 X115.504 Y112.656 E0.03119 ; infill
G1 X134.496 Y112.656 E0.96730 ; infill
M73 P46 R3
M73 Q46 S3
G1 X134.496 Y112.044 E0.03119 ; infill
G1 X115.504 Y112.044 E0.96730 ; infill
G1 X115.504 Y111.431 E0.03119 ; infill
G1 X134.496 Y111.431 E0.96730 ; infill
G1 X134.496 Y110.819 E0.03119 ; infill
G1 X115.504 Y110.819 E0.96730 ; infill
M73 P47 R3
M73 Q47 S3
G1 X115.504 Y110.206 E0.03119 ; infill
G1 X134.496 Y110.206 E0.96730 ; infill
G1 X134.496 Y109.594 E0.03119 ; infill
G1 X115.504 Y109.594 E0.96730 ; infill
G1 X115.504 Y108.981 E0.03119 ; infill
G1 X134.496 Y108.981 E0.96730 ; infill
M73 P48 R3
M73 Q48 S3
G1 X134.496 Y108.369 E0.03119 ; infill
G1 X115.504 Y108.369 E0.96730 ; infill
G1 X115.504 Y107.756 E0.03119 ; infill
G1 X134.496 Y107.756 E0.96730 ; infill
G1 X134.496 Y107.144 E0.03119 ; infill
G1 X115.504 Y107.144 E0.96730 ; infill
M73 P49 R3
M73 Q49 S3
