; generated by PrusaSlicer 2.3.0-alpha3+win64 on 2020-11-18 at 20:01:45 UTC


;
;

;
;
; 

; external perimeters extrusion width = 0.25mm
; perimeters extrusion width = 0.25mm
; infill extrusion width = 0.25mm
; solid infill extrusion width = 0.25mm
; top infill extrusion width = 0.25mm
; first layer extrusion width = 0.30mm

M73 P0 R14
M73 Q0 S14
M201 X1000 Y1000 Z200 E5000 ; sets maximum accelerations, mm/sec^2
M203 X200 Y200 Z12 E120 ; sets maximum feedrates, mm/sec
M204 P1250 R1250 T1250 ; sets acceleration (P, T) and retract acceleration (R), mm/sec^2
M205 X8.00 Y8.00 Z0.40 E4.50 ; sets the jerk limits, mm/sec
M205 S0 T0 ; sets the minimum extruding and travel feed rate, mm/sec
M107 ; disable fan
;TYPE:Custom
M862.3 P "MK3S" ; printer model check
M862.1 P0.25 ; nozzle diameter check
M115 U3.9.0 ; tell printer latest fw version
G90 ; use absolute coordinates
M83 ; extruder relative mode
M104 S215 ; set extruder temp
M140 S60 ; set bed temp
M190 S60 ; wait for bed temp
M109 S215 ; wait for extruder temp
G28 W ; home all without mesh bed level
G80 ; mesh bed leveling
G1 Y-3.0 F1000.0 ; go outside print area
G92 E0.0
G1 X60.0 E8.0 F700.0 ; intro line
G1 X100.0 E12.5 F700.0 ; intro line
G92 E0.0
M221 S95

; Don't change E value below. Excessive value can damage the printer.
M907 E430 ; set extruder motor current
G21 ; set units to millimeters
G90 ; use absolute coordinates
M83 ; use relative distances for extrusion
M900 K0.05 ; Filament gcode LA 1.5
M900 K30 ; Filament gcode LA 1.0
;Z:0.2
;HEIGHT:0.2
;BEFORE_LAYER_CHANGE
G92 E0.0
;0.2


M73 P1 R14
M73 Q1 S14
G1 E-0.80000 F2100.00000 ; retract
G1 Z0.150 F10800.000 ; lift Z
G1 Z0.200 ; move to next layer (0)
;AFTER_LAYER_CHANGE
;0.2
G1 Y205 Z69 ; move plate forward for inspection
G4 S10 ; pause for inspection

; printing object Shape-Box 1 id:0 copy 0
G1 Z0.350 ; lift Z
M73 P2 R14
M73 Q2 S14
G1 X49.987 Y30.130 ; move to first infill point
G1 Z0.200 ; restore layer Z
G1 E0.80000 F2100.00000 ; unretract
M204 S500 ; adjust acceleration
;TYPE:Solid infill
G1 F1200.000
G1 X30.129 Y30.130 E0.42890 ; infill
G1 X30.129 Y30.390 E0.00561 ; infill
G1 X49.871 Y30.390 E0.42640 ; infill
G1 X49.871 Y30.649 E0.00561 ; infill
G1 X30.129 Y30.649 E0.42640 ; infill
M73 Q3 S14
G1 X30.129 Y30.909 E0.00561 ; infill
G1 X49.871 Y30.909 E0.42640 ; infill
M73 P3 R14
G1 X49.871 Y31.169 E0.00561 ; infill
G1 X30.129 Y31.169 E0.42640 ; infill
G1 X30.129 Y31.429 E0.00561 ; infill
G1 X49.871 Y31.429 E0.42640 ; infill
G1 X49.871 Y31.688 E0.00561 ; infill
G1 X30.129 Y31.688 E0.42640 ; infill
G1 X30.129 Y31.948 E0.00561 ; infill
G1 X49.871 Y31.948 E0.42640 ; infill
G1 X49.871 Y32.208 E0.00561 ; infill
G1 X30.129 Y32.208 E0.42640 ; infill
G1 X30.129 Y32.468 E0.00561 ; infill
G1 X49.871 Y32.468 E0.42640 ; infill
G1 X49.871 Y32.727 E0.00561 ; infill
G1 X30.129 Y32.727 E0.42640 ; infill
G1 X30.129 Y32.987 E0.00561 ; infill
G1 X49.871 Y32.987 E0.42640 ; infill
M73 P4 R14
M73 Q4 S14
G1 X49.871 Y33.247 E0.00561 ; infill
G1 X30.129 Y33.247 E0.42640 ; infill
M73 P4 R13
G1 X30.129 Y33.507 E0.00561 ; infill
G1 X49.871 Y33.507 E0.42640 ; infill
G1 X49.871 Y33.766 E0.00561 ; infill
G1 X30.129 Y33.766 E0.42640 ; infill
G1 X30.129 Y34.026 E0.00561 ; infill
G1 X49.871 Y34.026 E0.42640 ; infill
G1 X49.871 Y34.286 E0.00561 ; infill
G1 X30.129 Y34.286 E0.42640 ; infill
G1 X30.129 Y34.545 E0.00561 ; infill
G1 X49.871 Y34.545 E0.42640 ; infill
M73 Q4 S13
G1 X49.871 Y34.805 E0.00561 ; infill
G1 X30.129 Y34.805 E0.42640 ; infill
G1 X30.129 Y35.065 E0.00561 ; infill
G1 X49.871 Y35.065 E0.42640 ; infill
M73 P5 R13
M73 Q5 S13
G1 X49.871 Y35.325 E0.00561 ; infill
G1 X30.129 Y35.325 E0.42640 ; infill
G1 X30.129 Y35.584 E0.00561 ; infill
G1 X49.871 Y35.584 E0.42640 ; infill
G1 X49.871 Y35.844 E0.00561 ; infill
G1 X30.129 Y35.844 E0.42640 ; infill
G1 X30.129 Y36.104 E0.00561 ; infill
G1 X49.871 Y36.104 E0.42640 ; infill
G1 X49.871 Y36.364 E0.00561 ; infill
G1 X30.129 Y36.364 E0.42640 ; infill
G1 X30.129 Y36.623 E0.00561 ; infill
G1 X49.871 Y36.623 E0.42640 ; infill
G1 X49.871 Y36.883 E0.00561 ; infill
G1 X30.129 Y36.883 E0.42640 ; infill
G1 X30.129 Y37.143 E0.00561 ; infill
G1 X49.871 Y37.143 E0.42640 ; infill
M73 Q6 S13
G1 X49.871 Y37.403 E0.00561 ; infill
G1 X30.129 Y37.403 E0.42640 ; infill
M73 P6 R13
G1 X30.129 Y37.662 E0.00561 ; infill
G1 X49.871 Y37.662 E0.42640 ; infill
G1 X49.871 Y37.922 E0.00561 ; infill
G1 X30.129 Y37.922 E0.42640 ; infill
G1 X30.129 Y38.182 E0.00561 ; infill
G1 X49.871 Y38.182 E0.42640 ; infill
G1 X49.871 Y38.442 E0.00561 ; infill
G1 X30.129 Y38.442 E0.42640 ; infill
G1 X30.129 Y38.701 E0.00561 ; infill
G1 X49.871 Y38.701 E0.42640 ; infill
G1 X49.871 Y38.961 E0.00561 ; infill
G1 X30.129 Y38.961 E0.42640 ; infill
G1 X30.129 Y39.221 E0.00561 ; infill
G1 X49.871 Y39.221 E0.42640 ; infill
G1 X49.871 Y39.481 E0.00561 ; infill
G1 X30.129 Y39.481 E0.42640 ; infill
M73 P7 R13
M73 Q7 S13
G1 X30.129 Y39.740 E0.00561 ; infill
G1 X49.871 Y39.740 E0.42640 ; infill
G1 X49.871 Y40.000 E0.00561 ; infill
G1 X30.129 Y40.000 E0.42640 ; infill
G1 X30.129 Y40.260 E0.00561 ; infill
G1 X49.871 Y40.260 E0.42640 ; infill
G1 X49.871 Y40.520 E0.00561 ; infill
G1 X30.129 Y40.520 E0.42640 ; infill
G1 X30.129 Y40.779 E0.00561 ; infill
G1 X49.871 Y40.779 E0.42640 ; infill
G1 X49.871 Y41.039 E0.00561 ; infill
G1 X30.129 Y41.039 E0.42640 ; infill
G1 X30.129 Y41.299 E0.00561 ; infill
G1 X49.871 Y41.299 E0.42640 ; infill
G1 X49.871 Y41.558 E0.00561 ; infill
G1 X30.129 Y41.558 E0.42640 ; infill
M73 P8 R13
M73 Q8 S13
G1 X30.129 Y41.818 E0.00561 ; infill
G1 X49.871 Y41.818 E0.42640 ; infill
G1 X49.871 Y42.078 E0.00561 ; infill
G1 X30.129 Y42.078 E0.42640 ; infill
G1 X30.129 Y42.338 E0.00561 ; infill
G1 X49.871 Y42.338 E0.42640 ; infill
G1 X49.871 Y42.597 E0.00561 ; infill
G1 X30.129 Y42.597 E0.42640 ; infill
G1 X30.129 Y42.857 E0.00561 ; infill
G1 X49.871 Y42.857 E0.42640 ; infill
G1 X49.871 Y43.117 E0.00561 ; infill
G1 X30.129 Y43.117 E0.42640 ; infill
G1 X30.129 Y43.377 E0.00561 ; infill
G1 X49.871 Y43.377 E0.42640 ; infill
G1 X49.871 Y43.636 E0.00561 ; infill
G1 X30.129 Y43.636 E0.42640 ; infill
M73 P9 R13
M73 Q9 S13
G1 X30.129 Y43.896 E0.00561 ; infill
G1 X49.871 Y43.896 E0.42640 ; infill
G1 X49.871 Y44.156 E0.00561 ; infill
G1 X30.129 Y44.156 E0.42640 ; infill
G1 X30.129 Y44.416 E0.00561 ; infill
G1 X49.871 Y44.416 E0.42640 ; infill
G1 X49.871 Y44.675 E0.00561 ; infill
G1 X30.129 Y44.675 E0.42640 ; infill
G1 X30.129 Y44.935 E0.00561 ; infill
G1 X49.871 Y44.935 E0.42640 ; infill
G1 X49.871 Y45.195 E0.00561 ; infill
G1 X30.129 Y45.195 E0.42640 ; infill
G1 X30.129 Y45.455 E0.00561 ; infill
G1 X49.871 Y45.455 E0.42640 ; infill
G1 X49.871 Y45.714 E0.00561 ; infill
G1 X30.129 Y45.714 E0.42640 ; infill
G1 X30.129 Y45.974 E0.00561 ; infill
G1 X49.871 Y45.974 E0.42640 ; infill
M73 P10 R13
M73 Q10 S13
G1 X49.871 Y46.234 E0.00561 ; infill
G1 X30.129 Y46.234 E0.42640 ; infill
G1 X30.129 Y46.494 E0.00561 ; infill
G1 X49.871 Y46.494 E0.42640 ; infill
G1 X49.871 Y46.753 E0.00561 ; infill
G1 X30.129 Y46.753 E0.42640 ; infill
G1 X30.129 Y47.013 E0.00561 ; infill
G1 X49.871 Y47.013 E0.42640 ; infill
G1 X49.871 Y47.273 E0.00561 ; infill
G1 X30.129 Y47.273 E0.42640 ; infill
G1 X30.129 Y47.532 E0.00561 ; infill
G1 X49.871 Y47.532 E0.42640 ; infill
G1 X49.871 Y47.792 E0.00561 ; infill
G1 X30.129 Y47.792 E0.42640 ; infill
G1 X30.129 Y48.052 E0.00561 ; infill
G1 X49.871 Y48.052 E0.42640 ; infill
M73 P11 R13
M73 Q11 S13
G1 X49.871 Y48.312 E0.00561 ; infill
G1 X30.129 Y48.312 E0.42640 ; infill
G1 X30.129 Y48.571 E0.00561 ; infill
G1 X49.871 Y48.571 E0.42640 ; infill
M73 P11 R12
G1 X49.871 Y48.831 E0.00561 ; infill
G1 X30.129 Y48.831 E0.42640 ; infill
G1 X30.129 Y49.091 E0.00561 ; infill
G1 X49.871 Y49.091 E0.42640 ; infill
G1 X49.871 Y49.351 E0.00561 ; infill
G1 X30.129 Y49.351 E0.42640 ; infill
G1 X30.129 Y49.610 E0.00561 ; infill
G1 X49.871 Y49.610 E0.42640 ; infill
G1 X49.871 Y49.870 E0.00561 ; infill
G1 X30.013 Y49.870 E0.42890 ; infill
M204 S1000 ; adjust acceleration
; stop printing object Shape-Box 1 id:0 copy 0
M73 Q11 S12
G1 F8640.000
G1 X33.304 Y49.870 E-0.76000 ; wipe and retract
G1 E-0.04000 F2100.00000 ; retract
G1 Z0.350 F10800.000 ; lift Z
G1 X125.000 Y40.000 F10800.000 ; move to origin position for next object
M104 S215 ; set temperature
;Z:0.2
;HEIGHT:0.2
;BEFORE_LAYER_CHANGE
G92 E0.0
;0.2


;AFTER_LAYER_CHANGE
;0.2
M73 P12 R12
M73 Q12 S12
G1 Y205 Z69 ; move plate forward for inspection
G4 S10 ; pause for inspection

; printing object Shape-Box 2 id:0 copy 0
G1 X115.013 Y49.870 F10800.000 ; move to first infill point
G1 Z0.200 ; restore layer Z
M73 P13 R12
M73 Q13 S12
G1 E0.80000 F2100.00000 ; unretract
M204 S500 ; adjust acceleration
G1 F1200.000
G1 X134.871 Y49.870 E0.42890 ; infill
G1 X134.871 Y49.610 E0.00561 ; infill
G1 X115.129 Y49.610 E0.42640 ; infill
G1 X115.129 Y49.351 E0.00561 ; infill
G1 X134.871 Y49.351 E0.42640 ; infill
G1 X134.871 Y49.091 E0.00561 ; infill
G1 X115.129 Y49.091 E0.42640 ; infill
M73 P14 R12
M73 Q14 S12
G1 X115.129 Y48.831 E0.00561 ; infill
G1 X134.871 Y48.831 E0.42640 ; infill
G1 X134.871 Y48.571 E0.00561 ; infill
G1 X115.129 Y48.571 E0.42640 ; infill
G1 X115.129 Y48.312 E0.00561 ; infill
G1 X134.871 Y48.312 E0.42640 ; infill
G1 X134.871 Y48.052 E0.00561 ; infill
G1 X115.129 Y48.052 E0.42640 ; infill
G1 X115.129 Y47.792 E0.00561 ; infill
G1 X134.871 Y47.792 E0.42640 ; infill
G1 X134.871 Y47.532 E0.00561 ; infill
G1 X115.129 Y47.532 E0.42640 ; infill
G1 X115.129 Y47.273 E0.00561 ; infill
G1 X134.871 Y47.273 E0.42640 ; infill
G1 X134.871 Y47.013 E0.00561 ; infill
G1 X115.129 Y47.013 E0.42640 ; infill
M73 Q15 S12
G1 X115.129 Y46.753 E0.00561 ; infill
G1 X134.871 Y46.753 E0.42640 ; infill
M73 P15 R12
G1 X134.871 Y46.494 E0.00561 ; infill
G1 X115.129 Y46.494 E0.42640 ; infill
G1 X115.129 Y46.234 E0.00561 ; infill
G1 X134.871 Y46.234 E0.42640 ; infill
G1 X134.871 Y45.974 E0.00561 ; infill
G1 X115.129 Y45.974 E0.42640 ; infill
G1 X115.129 Y45.714 E0.00561 ; infill
G1 X134.871 Y45.714 E0.42640 ; infill
G1 X134.871 Y45.455 E0.00561 ; infill
G1 X115.129 Y45.455 E0.42640 ; infill
G1 X115.129 Y45.195 E0.00561 ; infill
G1 X134.871 Y45.195 E0.42640 ; infill
G1 X134.871 Y44.935 E0.00561 ; infill
G1 X115.129 Y44.935 E0.42640 ; infill
M73 Q16 S12
G1 X115.129 Y44.675 E0.00561 ; infill
G1 X134.871 Y44.675 E0.42640 ; infill
M73 P16 R12
G1 X134.871 Y44.416 E0.00561 ; infill
G1 X115.129 Y44.416 E0.42640 ; infill
G1 X115.129 Y44.156 E0.00561 ; infill
G1 X134.871 Y44.156 E0.42640 ; infill
G1 X134.871 Y43.896 E0.00561 ; infill
G1 X115.129 Y43.896 E0.42640 ; infill
G1 X115.129 Y43.636 E0.00561 ; infill
G1 X134.871 Y43.636 E0.42640 ; infill
G1 X134.871 Y43.377 E0.00561 ; infill
G1 X115.129 Y43.377 E0.42640 ; infill
G1 X115.129 Y43.117 E0.00561 ; infill
G1 X134.871 Y43.117 E0.42640 ; infill
G1 X134.871 Y42.857 E0.00561 ; infill
G1 X115.129 Y42.857 E0.42640 ; infill
G1 X115.129 Y42.597 E0.00561 ; infill
G1 X134.871 Y42.597 E0.42640 ; infill
M73 P17 R12
M73 Q17 S12
G1 X134.871 Y42.338 E0.00561 ; infill
G1 X115.129 Y42.338 E0.42640 ; infill
G1 X115.129 Y42.078 E0.00561 ; infill
G1 X134.871 Y42.078 E0.42640 ; infill
G1 X134.871 Y41.818 E0.00561 ; infill
G1 X115.129 Y41.818 E0.42640 ; infill
G1 X115.129 Y41.558 E0.00561 ; infill
G1 X134.871 Y41.558 E0.42640 ; infill
G1 X134.871 Y41.299 E0.00561 ; infill
G1 X115.129 Y41.299 E0.42640 ; infill
G1 X115.129 Y41.039 E0.00561 ; infill
G1 X134.871 Y41.039 E0.42640 ; infill
G1 X134.871 Y40.779 E0.00561 ; infill
G1 X115.129 Y40.779 E0.42640 ; infill
G1 X115.129 Y40.520 E0.00561 ; infill
G1 X134.871 Y40.520 E0.42640 ; infill
M73 P18 R12
M73 Q18 S12
G1 X134.871 Y40.260 E0.00561 ; infill
G1 X115.129 Y40.260 E0.42640 ; infill
G1 X115.129 Y40.000 E0.00561 ; infill
G1 X134.871 Y40.000 E0.42640 ; infill
G1 X134.871 Y39.740 E0.00561 ; infill
G1 X115.129 Y39.740 E0.42640 ; infill
M73 P18 R11
G1 X115.129 Y39.481 E0.00561 ; infill
G1 X134.871 Y39.481 E0.42640 ; infill
G1 X134.871 Y39.221 E0.00561 ; infill
G1 X115.129 Y39.221 E0.42640 ; infill
G1 X115.129 Y38.961 E0.00561 ; infill
G1 X134.871 Y38.961 E0.42640 ; infill
G1 X134.871 Y38.701 E0.00561 ; infill
G1 X115.129 Y38.701 E0.42640 ; infill
M73 Q18 S11
G1 X115.129 Y38.442 E0.00561 ; infill
G1 X134.871 Y38.442 E0.42640 ; infill
M73 Q19 S11
G1 X134.871 Y38.182 E0.00561 ; infill
G1 X115.129 Y38.182 E0.42640 ; infill
M73 P19 R11
G1 X115.129 Y37.922 E0.00561 ; infill
G1 X134.871 Y37.922 E0.42640 ; infill
G1 X134.871 Y37.662 E0.00561 ; infill
G1 X115.129 Y37.662 E0.42640 ; infill
G1 X115.129 Y37.403 E0.00561 ; infill
G1 X134.871 Y37.403 E0.42640 ; infill
G1 X134.871 Y37.143 E0.00561 ; infill
G1 X115.129 Y37.143 E0.42640 ; infill
G1 X115.129 Y36.883 E0.00561 ; infill
G1 X134.871 Y36.883 E0.42640 ; infill
G1 X134.871 Y36.623 E0.00561 ; infill
G1 X115.129 Y36.623 E0.42640 ; infill
G1 X115.129 Y36.364 E0.00561 ; infill
G1 X134.871 Y36.364 E0.42640 ; infill
M73 Q20 S11
G1 X134.871 Y36.104 E0.00561 ; infill
G1 X115.129 Y36.104 E0.42640 ; infill
M73 P20 R11
G1 X115.129 Y35.844 E0.00561 ; infill
G1 X134.871 Y35.844 E0.42640 ; infill
G1 X134.871 Y35.584 E0.00561 ; infill
G1 X115.129 Y35.584 E0.42640 ; infill
G1 X115.129 Y35.325 E0.00561 ; infill
G1 X134.871 Y35.325 E0.42640 ; infill
G1 X134.871 Y35.065 E0.00561 ; infill
G1 X115.129 Y35.065 E0.42640 ; infill
G1 X115.129 Y34.805 E0.00561 ; infill
G1 X134.871 Y34.805 E0.42640 ; infill
G1 X134.871 Y34.545 E0.00561 ; infill
G1 X115.129 Y34.545 E0.42640 ; infill
G1 X115.129 Y34.286 E0.00561 ; infill
G1 X134.871 Y34.286 E0.42640 ; infill
G1 X134.871 Y34.026 E0.00561 ; infill
G1 X115.129 Y34.026 E0.42640 ; infill
M73 P21 R11
M73 Q21 S11
G1 X115.129 Y33.766 E0.00561 ; infill
G1 X134.871 Y33.766 E0.42640 ; infill
G1 X134.871 Y33.507 E0.00561 ; infill
G1 X115.129 Y33.507 E0.42640 ; infill
G1 X115.129 Y33.247 E0.00561 ; infill
G1 X134.871 Y33.247 E0.42640 ; infill
G1 X134.871 Y32.987 E0.00561 ; infill
G1 X115.129 Y32.987 E0.42640 ; infill
G1 X115.129 Y32.727 E0.00561 ; infill
G1 X134.871 Y32.727 E0.42640 ; infill
G1 X134.871 Y32.468 E0.00561 ; infill
G1 X115.129 Y32.468 E0.42640 ; infill
G1 X115.129 Y32.208 E0.00561 ; infill
G1 X134.871 Y32.208 E0.42640 ; infill
G1 X134.871 Y31.948 E0.00561 ; infill
G1 X115.129 Y31.948 E0.42640 ; infill
M73 P22 R11
M73 Q22 S11
G1 X115.129 Y31.688 E0.00561 ; infill
G1 X134.871 Y31.688 E0.42640 ; infill
G1 X134.871 Y31.429 E0.00561 ; infill
G1 X115.129 Y31.429 E0.42640 ; infill
G1 X115.129 Y31.169 E0.00561 ; infill
G1 X134.871 Y31.169 E0.42640 ; infill
G1 X134.871 Y30.909 E0.00561 ; infill
G1 X115.129 Y30.909 E0.42640 ; infill
G1 X115.129 Y30.649 E0.00561 ; infill
G1 X134.871 Y30.649 E0.42640 ; infill
G1 X134.871 Y30.390 E0.00561 ; infill
G1 X115.129 Y30.390 E0.42640 ; infill
G1 X115.129 Y30.130 E0.00561 ; infill
G1 X134.987 Y30.130 E0.42890 ; infill
M204 S1000 ; adjust acceleration
; stop printing object Shape-Box 2 id:0 copy 0
G1 F8640.000
G1 X131.696 Y30.130 E-0.76000 ; wipe and retract
G1 E-0.04000 F2100.00000 ; retract
G1 Z0.350 F10800.000 ; lift Z
G1 X210.000 Y40.000 F10800.000 ; move to origin position for next object
M104 S215 ; set temperature
;Z:0.2
;HEIGHT:0.2
;BEFORE_LAYER_CHANGE
G92 E0.0
;0.2


;AFTER_LAYER_CHANGE
;0.2
M73 Q23 S11
G1 Y205 Z69 ; move plate forward for inspection
G4 S10 ; pause for inspection

; printing object Shape-Box 3 id:0 copy 0
M73 P23 R11
G1 X200.013 Y49.870 F10800.000 ; move to first infill point
G1 Z0.200 ; restore layer Z
M73 P24 R11
M73 Q24 S11
G1 E0.80000 F2100.00000 ; unretract
M204 S500 ; adjust acceleration
G1 F1200.000
G1 X219.871 Y49.870 E0.42890 ; infill
G1 X219.871 Y49.610 E0.00561 ; infill
G1 X200.129 Y49.610 E0.42640 ; infill
G1 X200.129 Y49.351 E0.00561 ; infill
G1 X219.871 Y49.351 E0.42640 ; infill
G1 X219.871 Y49.091 E0.00561 ; infill
G1 X200.129 Y49.091 E0.42640 ; infill
M73 Q25 S11
G1 X200.129 Y48.831 E0.00561 ; infill
G1 X219.871 Y48.831 E0.42640 ; infill
M73 P25 R11
G1 X219.871 Y48.571 E0.00561 ; infill
G1 X200.129 Y48.571 E0.42640 ; infill
G1 X200.129 Y48.312 E0.00561 ; infill
G1 X219.871 Y48.312 E0.42640 ; infill
