; generated by PrusaSlicer 2.3.0-alpha3+win64 on 2020-11-04 at 17:32:33 UTC

; 

; external perimeters extrusion width = 0.45mm
; perimeters extrusion width = 0.45mm
; infill extrusion width = 0.45mm
; solid infill extrusion width = 0.45mm
; top infill extrusion width = 0.40mm
; first layer extrusion width = 0.42mm

M73 P0 R8
M73 Q0 S8
M201 X1000 Y1000 Z200 E5000 ; sets maximum accelerations, mm/sec^2
M203 X200 Y200 Z12 E120 ; sets maximum feedrates, mm/sec
M204 P1250 R1250 T1250 ; sets acceleration (P, T) and retract acceleration (R), mm/sec^2
M205 X8.00 Y8.00 Z0.40 E4.50 ; sets the jerk limits, mm/sec
M205 S0 T0 ; sets the minimum extruding and travel feed rate, mm/sec
M107 ; disable fan
;TYPE:Custom
M862.3 P "MK3S" ; printer model check
M862.1 P0.4 ; nozzle diameter check
M115 U3.9.0 ; tell printer latest fw version
G90 ; use absolute coordinates
M83 ; extruder relative mode
M104 S230 ; set extruder temp
M140 S110 ; set bed temp
M190 S110 ; wait for bed temp
M109 S230 ; wait for extruder temp
G28 W ; home all without mesh bed level
G80 ; mesh bed leveling
G1 Y-3.0 F1000.0 ; go outside print area
G92 E0.0
G1 X60.0 E9.0 F1000.0 ; intro line
G1 X100.0 E12.5 F1000.0 ; intro line
G92 E0.0
M221 S95
G21 ; set units to millimeters
G90 ; use absolute coordinates
M83 ; use relative distances for extrusion
M900 K0.04 ; Filament gcode LA 1.5
M900 K20 ; Filament gcode LA 1.0
;Z:0.2
;HEIGHT:0.2
;BEFORE_LAYER_CHANGE
G92 E0.0
;0.2


M73 P1 R8
M73 Q1 S8
G1 E-2.00000 F2100.00000 ; retract
G1 Z0.600 F10800.000 ; lift Z
;AFTER_LAYER_CHANGE
;0.2
; printing object Shape-Box 1 id:0 copy 0
G1 X49.013 Y49.781 ; move to first infill point
G1 Z0.200 ; restore layer Z
G1 E2.00000 F2100.00000 ; unretract
M204 S1000 ; adjust acceleration
;TYPE:Solid infill
G1 F1200.000
G1 X49.611 Y49.183 E0.02671 ; infill
G1 X49.611 Y48.646 E0.01695 ; infill
G1 X48.646 Y49.611 E0.04311 ; infill
G1 X48.109 Y49.611 E0.01695 ; infill
G1 X49.611 Y48.109 E0.06709 ; infill
G1 X49.611 Y47.572 E0.01695 ; infill
G1 X47.572 Y49.611 E0.09106 ; infill
G1 X47.035 Y49.611 E0.01695 ; infill
G1 X49.611 Y47.035 E0.11504 ; infill
G1 X49.611 Y46.498 E0.01695 ; infill
G1 X46.498 Y49.611 E0.13902 ; infill
G1 X45.961 Y49.611 E0.01695 ; infill
G1 X49.611 Y45.961 E0.16299 ; infill
G1 X49.611 Y45.424 E0.01695 ; infill
G1 X45.424 Y49.611 E0.18697 ; infill
G1 X44.887 Y49.611 E0.01695 ; infill
G1 X49.611 Y44.887 E0.21095 ; infill
G1 X49.611 Y44.350 E0.01695 ; infill
G1 X44.350 Y49.611 E0.23492 ; infill
G1 X43.813 Y49.611 E0.01695 ; infill
G1 X49.611 Y43.813 E0.25890 ; infill
M73 P2 R8
M73 Q2 S8
G1 X49.611 Y43.276 E0.01695 ; infill
G1 X43.276 Y49.611 E0.28288 ; infill
G1 X42.739 Y49.611 E0.01695 ; infill
G1 X49.611 Y42.739 E0.30685 ; infill
G1 X49.611 Y42.202 E0.01695 ; infill
G1 X42.202 Y49.611 E0.33083 ; infill
G1 X41.665 Y49.611 E0.01695 ; infill
G1 X49.611 Y41.665 E0.35481 ; infill
G1 X49.611 Y41.128 E0.01695 ; infill
G1 X41.128 Y49.611 E0.37878 ; infill
G1 X40.591 Y49.611 E0.01695 ; infill
G1 X49.611 Y40.591 E0.40276 ; infill
G1 X49.611 Y40.054 E0.01695 ; infill
G1 X40.054 Y49.611 E0.42674 ; infill
G1 X39.517 Y49.611 E0.01695 ; infill
G1 X49.611 Y39.517 E0.45071 ; infill
M73 P3 R8
M73 Q3 S8
G1 X49.611 Y38.980 E0.01695 ; infill
G1 X38.980 Y49.611 E0.47469 ; infill
G1 X38.443 Y49.611 E0.01695 ; infill
G1 X49.611 Y38.443 E0.49867 ; infill
G1 X49.611 Y37.906 E0.01695 ; infill
G1 X37.906 Y49.611 E0.52264 ; infill
G1 X37.369 Y49.611 E0.01695 ; infill
G1 X49.611 Y37.369 E0.54662 ; infill
G1 X49.611 Y36.832 E0.01695 ; infill
G1 X36.832 Y49.611 E0.57060 ; infill
G1 X36.295 Y49.611 E0.01695 ; infill
G1 X49.611 Y36.295 E0.59457 ; infill
M73 P4 R8
M73 Q4 S8
G1 X49.611 Y35.758 E0.01695 ; infill
G1 X35.758 Y49.611 E0.61855 ; infill
G1 X35.221 Y49.611 E0.01695 ; infill
G1 X49.611 Y35.221 E0.64253 ; infill
G1 X49.611 Y34.684 E0.01695 ; infill
G1 X34.684 Y49.611 E0.66651 ; infill
G1 X34.147 Y49.611 E0.01695 ; infill
G1 X49.611 Y34.147 E0.69048 ; infill
G1 X49.611 Y33.610 E0.01695 ; infill
G1 X33.610 Y49.611 E0.71446 ; infill
M73 P5 R8
M73 Q5 S8
G1 X33.073 Y49.611 E0.01695 ; infill
G1 X49.611 Y33.073 E0.73844 ; infill
G1 X49.611 Y32.536 E0.01695 ; infill
G1 X32.536 Y49.611 E0.76241 ; infill
G1 X31.999 Y49.611 E0.01695 ; infill
G1 X49.611 Y31.999 E0.78639 ; infill
G1 X49.611 Y31.462 E0.01695 ; infill
G1 X31.462 Y49.611 E0.81037 ; infill
M73 P6 R8
M73 Q6 S8
G1 X30.925 Y49.611 E0.01695 ; infill
G1 X49.611 Y30.925 E0.83434 ; infill
G1 X49.611 Y30.389 E0.01695 ; infill
G1 X30.389 Y49.611 E0.85832 ; infill
G1 X30.389 Y49.074 E0.01695 ; infill
G1 X49.074 Y30.389 E0.83434 ; infill
M73 P7 R8
M73 Q7 S8
G1 X48.537 Y30.389 E0.01695 ; infill
G1 X30.389 Y48.537 E0.81036 ; infill
G1 X30.389 Y48.000 E0.01695 ; infill
G1 X48.000 Y30.389 E0.78638 ; infill
G1 X47.463 Y30.389 E0.01695 ; infill
G1 X30.389 Y47.463 E0.76241 ; infill
G1 X30.389 Y46.926 E0.01695 ; infill
G1 X46.926 Y30.389 E0.73843 ; infill
M73 P8 R8
M73 Q8 S8
G1 X46.389 Y30.389 E0.01695 ; infill
G1 X30.389 Y46.389 E0.71445 ; infill
G1 X30.389 Y45.852 E0.01695 ; infill
M73 P8 R7
G1 X45.852 Y30.389 E0.69048 ; infill
G1 X45.316 Y30.389 E0.01695 ; infill
G1 X30.389 Y45.316 E0.66650 ; infill
G1 X30.389 Y44.779 E0.01695 ; infill
G1 X44.779 Y30.389 E0.64252 ; infill
M73 P9 R7
M73 Q8 S7
G1 X44.242 Y30.389 E0.01695 ; infill
G1 X30.389 Y44.242 E0.61855 ; infill
M73 Q9 S7
G1 X30.389 Y43.705 E0.01695 ; infill
G1 X43.705 Y30.389 E0.59457 ; infill
G1 X43.168 Y30.389 E0.01695 ; infill
G1 X30.389 Y43.168 E0.57059 ; infill
G1 X30.389 Y42.631 E0.01695 ; infill
G1 X42.631 Y30.389 E0.54662 ; infill
G1 X42.094 Y30.389 E0.01695 ; infill
G1 X30.389 Y42.094 E0.52264 ; infill
G1 X30.389 Y41.557 E0.01695 ; infill
G1 X41.557 Y30.389 E0.49866 ; infill
M73 P10 R7
M73 Q10 S7
G1 X41.020 Y30.389 E0.01695 ; infill
G1 X30.389 Y41.020 E0.47468 ; infill
G1 X30.389 Y40.483 E0.01695 ; infill
G1 X40.483 Y30.389 E0.45071 ; infill
G1 X39.946 Y30.389 E0.01695 ; infill
G1 X30.389 Y39.946 E0.42673 ; infill
G1 X30.389 Y39.409 E0.01695 ; infill
G1 X39.409 Y30.389 E0.40275 ; infill
G1 X38.872 Y30.389 E0.01695 ; infill
G1 X30.389 Y38.872 E0.37878 ; infill
G1 X30.389 Y38.335 E0.01695 ; infill
G1 X38.335 Y30.389 E0.35480 ; infill
G1 X37.798 Y30.389 E0.01695 ; infill
G1 X30.389 Y37.798 E0.33082 ; infill
M73 P11 R7
M73 Q11 S7
G1 X30.389 Y37.261 E0.01695 ; infill
G1 X37.261 Y30.389 E0.30685 ; infill
G1 X36.724 Y30.389 E0.01695 ; infill
G1 X30.389 Y36.724 E0.28287 ; infill
G1 X30.389 Y36.187 E0.01695 ; infill
G1 X36.187 Y30.389 E0.25889 ; infill
G1 X35.650 Y30.389 E0.01695 ; infill
G1 X30.389 Y35.650 E0.23492 ; infill
G1 X30.389 Y35.113 E0.01695 ; infill
G1 X35.113 Y30.389 E0.21094 ; infill
G1 X34.576 Y30.389 E0.01695 ; infill
G1 X30.389 Y34.576 E0.18696 ; infill
G1 X30.389 Y34.039 E0.01695 ; infill
G1 X34.039 Y30.389 E0.16299 ; infill
G1 X33.502 Y30.389 E0.01695 ; infill
G1 X30.389 Y33.502 E0.13901 ; infill
G1 X30.389 Y32.965 E0.01695 ; infill
G1 X32.965 Y30.389 E0.11503 ; infill
G1 X32.428 Y30.389 E0.01695 ; infill
G1 X30.389 Y32.428 E0.09106 ; infill
G1 X30.389 Y31.891 E0.01695 ; infill
G1 X31.891 Y30.389 E0.06708 ; infill
G1 X31.354 Y30.389 E0.01695 ; infill
G1 X30.389 Y31.354 E0.04310 ; infill
G1 X30.389 Y30.817 E0.01695 ; infill
G1 X30.987 Y30.219 E0.02670 ; infill
; stop printing object Shape-Box 1 id:0 copy 0
G1 F8640.000
G1 X30.389 Y30.817 E-0.19528 ; wipe and retract
G1 F8640.000
G1 X30.389 Y31.354 E-0.12399 ; wipe and retract
G1 F8640.000
G1 X31.354 Y30.389 E-0.31522 ; wipe and retract
G1 F8640.000
G1 X31.891 Y30.389 E-0.12399 ; wipe and retract
G1 F8640.000
G1 X30.389 Y31.891 E-0.49057 ; wipe and retract
G1 F8640.000
G1 X30.389 Y32.428 E-0.12399 ; wipe and retract
G1 F8640.000
G1 X32.002 Y30.814 E-0.52695 ; wipe and retract
G1 E-0.10000 F2100.00000 ; retract
G1 Z0.800 F10800.000 ; lift Z
G1 X125.000 Y40.000 F10800.000 ; move to origin position for next object
M104 S230 ; set temperature
;Z:0.2
;HEIGHT:0.2
;BEFORE_LAYER_CHANGE
G92 E0.0
;0.2


M73 P12 R7
M73 Q12 S7
G1 Z0.200 F10800.000 ; move to next layer (1)
;AFTER_LAYER_CHANGE
;0.2
; printing object Shape-Box 2 id:0 copy 0
G1 Z0.800 ; lift Z
G1 X115.987 Y30.219 ; move to first infill point
G4 S5
G1 Z0.200 ; restore layer Z
G1 E2.00000 F2100.00000 ; unretract
G1 F1200.000
G1 X115.389 Y30.817 E0.02670 ; infill
G1 X115.389 Y31.354 E0.01695 ; infill
G1 X116.354 Y30.389 E0.04310 ; infill
G1 X116.891 Y30.389 E0.01695 ; infill
G1 X115.389 Y31.891 E0.06708 ; infill
G1 X115.389 Y32.428 E0.01695 ; infill
G1 X117.428 Y30.389 E0.09106 ; infill
G1 X117.965 Y30.389 E0.01695 ; infill
G1 X115.389 Y32.965 E0.11503 ; infill
G1 X115.389 Y33.502 E0.01695 ; infill
G1 X118.502 Y30.389 E0.13901 ; infill
G1 X119.039 Y30.389 E0.01695 ; infill
G1 X115.389 Y34.039 E0.16299 ; infill
G1 X115.389 Y34.576 E0.01695 ; infill
G1 X119.576 Y30.389 E0.18696 ; infill
G1 X120.113 Y30.389 E0.01695 ; infill
G1 X115.389 Y35.113 E0.21094 ; infill
G1 X115.389 Y35.650 E0.01695 ; infill
G1 X120.650 Y30.389 E0.23492 ; infill
G1 X121.187 Y30.389 E0.01695 ; infill
G1 X115.389 Y36.187 E0.25889 ; infill
G1 X115.389 Y36.724 E0.01695 ; infill
G1 X121.724 Y30.389 E0.28287 ; infill
G1 X122.261 Y30.389 E0.01695 ; infill
G1 X115.389 Y37.261 E0.30685 ; infill
M73 P13 R7
M73 Q13 S7
G1 X115.389 Y37.798 E0.01695 ; infill
G1 X122.798 Y30.389 E0.33082 ; infill
G1 X123.335 Y30.389 E0.01695 ; infill
G1 X115.389 Y38.335 E0.35480 ; infill
G1 X115.389 Y38.872 E0.01695 ; infill
G1 X123.872 Y30.389 E0.37878 ; infill
G1 X124.409 Y30.389 E0.01695 ; infill
G1 X115.389 Y39.409 E0.40275 ; infill
G1 X115.389 Y39.946 E0.01695 ; infill
G1 X124.946 Y30.389 E0.42673 ; infill
G1 X125.483 Y30.389 E0.01695 ; infill
G1 X115.389 Y40.483 E0.45071 ; infill
G1 X115.389 Y41.020 E0.01695 ; infill
G1 X126.020 Y30.389 E0.47468 ; infill
G1 X126.557 Y30.389 E0.01695 ; infill
G1 X115.389 Y41.557 E0.49866 ; infill
M73 P14 R7
M73 Q14 S7
G1 X115.389 Y42.094 E0.01695 ; infill
G1 X127.094 Y30.389 E0.52264 ; infill
G1 X127.631 Y30.389 E0.01695 ; infill
G1 X115.389 Y42.631 E0.54662 ; infill
G1 X115.389 Y43.168 E0.01695 ; infill
G1 X128.168 Y30.389 E0.57059 ; infill
G1 X128.705 Y30.389 E0.01695 ; infill
G1 X115.389 Y43.705 E0.59457 ; infill
G1 X115.389 Y44.242 E0.01695 ; infill
G1 X129.242 Y30.389 E0.61855 ; infill
M73 P15 R7
M73 Q15 S7
G1 X129.779 Y30.389 E0.01695 ; infill
G1 X115.389 Y44.779 E0.64252 ; infill
G1 X115.389 Y45.316 E0.01695 ; infill
G1 X130.316 Y30.389 E0.66650 ; infill
G1 X130.852 Y30.389 E0.01695 ; infill
G1 X115.389 Y45.852 E0.69048 ; infill
G1 X115.389 Y46.389 E0.01695 ; infill
G1 X131.389 Y30.389 E0.71445 ; infill
M73 P16 R7
M73 Q16 S7
G1 X131.926 Y30.389 E0.01695 ; infill
G1 X115.389 Y46.926 E0.73843 ; infill
G1 X115.389 Y47.463 E0.01695 ; infill
G1 X132.463 Y30.389 E0.76241 ; infill
G1 X133.000 Y30.389 E0.01695 ; infill
G1 X115.389 Y48.000 E0.78638 ; infill
G1 X115.389 Y48.537 E0.01695 ; infill
G1 X133.537 Y30.389 E0.81036 ; infill
M73 P17 R7
M73 Q17 S7
G1 X134.074 Y30.389 E0.01695 ; infill
G1 X115.389 Y49.074 E0.83434 ; infill
G1 X115.389 Y49.611 E0.01695 ; infill
G1 X134.611 Y30.389 E0.85832 ; infill
G1 X134.611 Y30.925 E0.01695 ; infill
G1 X115.925 Y49.611 E0.83434 ; infill
G1 X116.462 Y49.611 E0.01695 ; infill
G1 X134.611 Y31.462 E0.81037 ; infill
M73 P18 R7
M73 Q18 S7
G1 X134.611 Y31.999 E0.01695 ; infill
G1 X116.999 Y49.611 E0.78639 ; infill
G1 X117.536 Y49.611 E0.01695 ; infill
G1 X134.611 Y32.536 E0.76241 ; infill
G1 X134.611 Y33.073 E0.01695 ; infill
G1 X118.073 Y49.611 E0.73844 ; infill
G1 X118.610 Y49.611 E0.01695 ; infill
G1 X134.611 Y33.610 E0.71446 ; infill
M73 P19 R7
M73 Q19 S7
G1 X134.611 Y34.147 E0.01695 ; infill
G1 X119.147 Y49.611 E0.69048 ; infill
G1 X119.684 Y49.611 E0.01695 ; infill
G1 X134.611 Y34.684 E0.66651 ; infill
G1 X134.611 Y35.221 E0.01695 ; infill
G1 X120.221 Y49.611 E0.64253 ; infill
G1 X120.758 Y49.611 E0.01695 ; infill
G1 X134.611 Y35.758 E0.61855 ; infill
M73 P20 R7
G1 X134.611 Y36.295 E0.01695 ; infill
M73 Q20 S7
G1 X121.295 Y49.611 E0.59457 ; infill
G1 X121.832 Y49.611 E0.01695 ; infill
G1 X134.611 Y36.832 E0.57060 ; infill
G1 X134.611 Y37.369 E0.01695 ; infill
G1 X122.369 Y49.611 E0.54662 ; infill
M73 P20 R6
G1 X122.906 Y49.611 E0.01695 ; infill
G1 X134.611 Y37.906 E0.52264 ; infill
G1 X134.611 Y38.443 E0.01695 ; infill
G1 X123.443 Y49.611 E0.49867 ; infill
G1 X123.980 Y49.611 E0.01695 ; infill
G1 X134.611 Y38.980 E0.47469 ; infill
M73 P21 R6
M73 Q21 S6
G1 X134.611 Y39.517 E0.01695 ; infill
G1 X124.517 Y49.611 E0.45071 ; infill
G1 X125.054 Y49.611 E0.01695 ; infill
G1 X134.611 Y40.054 E0.42674 ; infill
G1 X134.611 Y40.591 E0.01695 ; infill
G1 X125.591 Y49.611 E0.40276 ; infill
G1 X126.128 Y49.611 E0.01695 ; infill
G1 X134.611 Y41.128 E0.37878 ; infill
G1 X134.611 Y41.665 E0.01695 ; infill
G1 X126.665 Y49.611 E0.35481 ; infill
G1 X127.202 Y49.611 E0.01695 ; infill
G1 X134.611 Y42.202 E0.33083 ; infill
G1 X134.611 Y42.739 E0.01695 ; infill
G1 X127.739 Y49.611 E0.30685 ; infill
M73 P22 R6
G1 X128.276 Y49.611 E0.01695 ; infill
G1 X134.611 Y43.276 E0.28288 ; infill
M73 Q22 S6
G1 X134.611 Y43.813 E0.01695 ; infill
G1 X128.813 Y49.611 E0.25890 ; infill
G1 X129.350 Y49.611 E0.01695 ; infill
G1 X134.611 Y44.350 E0.23492 ; infill
G1 X134.611 Y44.887 E0.01695 ; infill
G1 X129.887 Y49.611 E0.21095 ; infill
G1 X130.424 Y49.611 E0.01695 ; infill
G1 X134.611 Y45.424 E0.18697 ; infill
G1 X134.611 Y45.961 E0.01695 ; infill
G1 X130.961 Y49.611 E0.16299 ; infill
G1 X131.498 Y49.611 E0.01695 ; infill
G1 X134.611 Y46.498 E0.13902 ; infill
G1 X134.611 Y47.035 E0.01695 ; infill
G1 X132.035 Y49.611 E0.11504 ; infill
G1 X132.572 Y49.611 E0.01695 ; infill
G1 X134.611 Y47.572 E0.09106 ; infill
G1 X134.611 Y48.109 E0.01695 ; infill
G1 X133.109 Y49.611 E0.06709 ; infill
G1 X133.646 Y49.611 E0.01695 ; infill
G1 X134.611 Y48.646 E0.04311 ; infill
G1 X134.611 Y49.183 E0.01695 ; infill
G1 X134.013 Y49.781 E0.02671 ; infill
; stop printing object Shape-Box 2 id:0 copy 0
G1 F8640.000
G1 X134.611 Y49.183 E-0.19533 ; wipe and retract
G1 F8640.000
G1 X134.611 Y48.646 E-0.12399 ; wipe and retract
G1 F8640.000
G1 X133.646 Y49.611 E-0.31527 ; wipe and retract
G1 F8640.000
G1 X133.109 Y49.611 E-0.12399 ; wipe and retract
G1 F8640.000
G1 X134.611 Y48.109 E-0.49062 ; wipe and retract
G1 F8640.000
G1 X134.611 Y47.572 E-0.12399 ; wipe and retract
G1 F8640.000
G1 X132.998 Y49.185 E-0.52681 ; wipe and retract
G1 E-0.10000 F2100.00000 ; retract
G1 Z0.800 F10800.000 ; lift Z
G1 X210.000 Y40.000 F10800.000 ; move to origin position for next object
M104 S230 ; set temperature
;Z:0.2
;HEIGHT:0.2
;BEFORE_LAYER_CHANGE
G92 E0.0
;0.2


G1 Z0.200 F10800.000 ; move to next layer (2)
;AFTER_LAYER_CHANGE
;0.2
; printing object Shape-Box 3 id:0 copy 0
G1 Z0.800 ; lift Z
G1 X200.987 Y30.219 ; move to first infill point
G4 S5
M73 P23 R6
G1 Z0.200 ; restore layer Z
M73 Q23 S6
G1 E2.00000 F2100.00000 ; unretract
G1 F1200.000
G1 X200.389 Y30.817 E0.02670 ; infill
G1 X200.389 Y31.354 E0.01695 ; infill
G1 X201.354 Y30.389 E0.04310 ; infill
G1 X201.891 Y30.389 E0.01695 ; infill
G1 X200.389 Y31.891 E0.06708 ; infill
G1 X200.389 Y32.428 E0.01695 ; infill
G1 X202.428 Y30.389 E0.09106 ; infill
G1 X202.965 Y30.389 E0.01695 ; infill
G1 X200.389 Y32.965 E0.11503 ; infill
G1 X200.389 Y33.502 E0.01695 ; infill
G1 X203.502 Y30.389 E0.13901 ; infill
G1 X204.039 Y30.389 E0.01695 ; infill
G1 X200.389 Y34.039 E0.16299 ; infill
G1 X200.389 Y34.576 E0.01695 ; infill
G1 X204.576 Y30.389 E0.18696 ; infill
G1 X205.113 Y30.389 E0.01695 ; infill
G1 X200.389 Y35.113 E0.21094 ; infill
G1 X200.389 Y35.650 E0.01695 ; infill
G1 X205.650 Y30.389 E0.23492 ; infill
G1 X206.187 Y30.389 E0.01695 ; infill
G1 X200.389 Y36.187 E0.25889 ; infill
G1 X200.389 Y36.724 E0.01695 ; infill
G1 X206.724 Y30.389 E0.28287 ; infill
G1 X207.261 Y30.389 E0.01695 ; infill
G1 X200.389 Y37.261 E0.30685 ; infill
G1 X200.389 Y37.798 E0.01695 ; infill
G1 X207.798 Y30.389 E0.33082 ; infill
G1 X208.335 Y30.389 E0.01695 ; infill
G1 X200.389 Y38.335 E0.35480 ; infill
M73 P24 R6
M73 Q24 S6
G1 X200.389 Y38.872 E0.01695 ; infill
G1 X208.872 Y30.389 E0.37878 ; infill
