; generated by PrusaSlicer 2.3.0-alpha3+win64 on 2020-11-15 at 05:26:05 UTC


;
;

;
;
; 

; external perimeters extrusion width = 0.68mm
; perimeters extrusion width = 0.68mm
; infill extrusion width = 0.68mm
; solid infill extrusion width = 0.68mm
; top infill extrusion width = 0.60mm
; first layer extrusion width = 0.65mm

M73 P0 R205
M73 Q0 S205
M201 X1000 Y1000 Z200 E5000 ; sets maximum accelerations, mm/sec^2
M203 X200 Y200 Z12 E120 ; sets maximum feedrates, mm/sec
M204 P1250 R1250 T1250 ; sets acceleration (P, T) and retract acceleration (R), mm/sec^2
M205 X8.00 Y8.00 Z0.40 E4.50 ; sets the jerk limits, mm/sec
M205 S0 T0 ; sets the minimum extruding and travel feed rate, mm/sec
M107
;TYPE:Custom
M862.3 P "MK3S" ; printer model check
M862.1 P0.6 ; nozzle diameter check
M115 U3.9.1 ; tell printer latest fw version
G90 ; use absolute coordinates
M83 ; extruder relative mode
M104 S215 ; set extruder temp
M140 S60 ; set bed temp
M190 S60 ; wait for bed temp
M109 S215 ; wait for extruder temp
G21 ; set units to millimeters
G90 ; use absolute coordinates
M83 ; use relative distances for extrusion
M900 K0.04 ; Filament gcode LA 1.5
M900 K18 ; Filament gcode LA 1.0


;external perimeter last layer (29)

M204 S1000
G1 X247.530 Y42.081 F10800.000
G1 X247.564 Y41.651
M204 S800
G1 Z11.600 F10800.000
G1 F3786.863
G1 X247.580 Y41.777 E0.01255
G1 X247.580 Y168.223 E12.49393
G1 X247.507 Y168.803 E0.05782
G1 X247.361 Y169.370 E0.05780
G1 X247.146 Y169.914 E0.05783
G1 X246.864 Y170.426 E0.05779
G1 X246.520 Y170.900 E0.05782
G1 X246.119 Y171.327 E0.05783
G1 X245.669 Y171.699 E0.05781
G1 X245.175 Y172.013 E0.05784
G1 X244.645 Y172.262 E0.05779
G1 X244.089 Y172.443 E0.05783
G1 X243.514 Y172.553 E0.05781
G1 X242.919 Y172.590 E0.05886
G1 X7.080 Y172.590 E23.30302
G1 X6.486 Y172.553 E0.05889
G1 X5.912 Y172.443 E0.05774
G1 X5.354 Y172.262 E0.05791
G1 X4.825 Y172.014 E0.05776
G1 X4.331 Y171.699 E0.05783
G1 X3.880 Y171.327 E0.05783
G1 X3.479 Y170.900 E0.05784
G1 X3.136 Y170.427 E0.05781
G1 X2.854 Y169.914 E0.05777
G1 X2.639 Y169.370 E0.05783
G1 X2.494 Y168.803 E0.05781
G1 X2.420 Y168.223 E0.05783
G1 X2.420 Y41.778 E12.49392
G1 X2.494 Y41.197 E0.05782
G1 X2.639 Y40.630 E0.05782
G1 X2.854 Y40.086 E0.05782
G1 X3.136 Y39.573 E0.05779
G1 X3.479 Y39.100 E0.05780
G1 X3.880 Y38.674 E0.05782
G1 X4.331 Y38.301 E0.05784
G1 X4.825 Y37.987 E0.05781
G1 X5.354 Y37.738 E0.05779
G1 X5.912 Y37.557 E0.05790
G1 X6.486 Y37.447 E0.05774
G1 X7.081 Y37.410 E0.05890
G1 X242.919 Y37.410 E23.30300
G1 X243.465 Y37.444 E0.05403
G1 X244.090 Y37.558 E0.06278
G1 X244.645 Y37.738 E0.05766
G1 X245.175 Y37.987 E0.05782
G1 X245.669 Y38.301 E0.05782
G1 X246.119 Y38.674 E0.05782
G1 X246.520 Y39.100 E0.05781
G1 X246.864 Y39.573 E0.05782
G1 X247.146 Y40.086 E0.05781
G1 X247.361 Y40.630 E0.05782
G1 X247.507 Y41.197 E0.05782
G1 X247.553 Y41.562 E0.03638
M204 S1000
G1 X247.465 Y41.731 F10800.000



;Z:11.8
;HEIGHT:0.400001
;BEFORE_LAYER_CHANGE
G92 E0.0
;11.8


G1 F8640.000
G1 X247.580 Y41.777 E-0.05010
G1 X247.580 Y44.852 E-0.70990
G1 E-0.04000 F2100.00000
G1 Z12.000 F10800.000
;AFTER_LAYER_CHANGE
;11.8
G1 X246.993 Y41.814
G1 Z11.800
G1 E0.80000 F2100.00000
M204 S800
G1 F3786.863
G1 X246.993 Y168.185 E12.48660
G1 X246.929 Y168.693 E0.05054
G1 X246.801 Y169.188 E0.05055
G1 X246.613 Y169.663 E0.05046
G1 X246.367 Y170.111 E0.05055
G1 X246.066 Y170.525 E0.05054
G1 X245.716 Y170.897 E0.05047
G1 X245.323 Y171.224 E0.05053
G1 X244.891 Y171.498 E0.05054
G1 X244.428 Y171.715 E0.05048
G1 X243.942 Y171.873 E0.05050
G1 X243.440 Y171.969 E0.05054
G1 X242.940 Y172.000 E0.04946
G1 X7.059 Y172.000 E23.30719
G1 X6.560 Y171.969 E0.04940
G1 X6.057 Y171.873 E0.05063
G1 X5.572 Y171.715 E0.05046
G1 X5.109 Y171.498 E0.05050
G1 X4.678 Y171.223 E0.05050
G1 X4.284 Y170.897 E0.05051
G1 X3.933 Y170.525 E0.05050
G1 X3.633 Y170.111 E0.05052
G1 X3.387 Y169.663 E0.05057
G1 X3.199 Y169.188 E0.05043
G1 X3.071 Y168.693 E0.05054
G1 X3.007 Y168.185 E0.05056
G1 X3.007 Y41.814 E12.48662
M73 P37 R127
G1 X3.071 Y41.307 E0.05053
G1 X3.199 Y40.812 E0.05050
G1 X3.387 Y40.337 E0.05049
G1 X3.633 Y39.889 E0.05053
G1 X3.933 Y39.475 E0.05049
G1 X4.284 Y39.103 E0.05055
G1 X4.678 Y38.777 E0.05050
G1 X5.109 Y38.503 E0.05047
G1 X5.571 Y38.285 E0.05053
G1 X6.057 Y38.127 E0.05047
G1 X6.560 Y38.031 E0.05060
G1 X7.059 Y38.000 E0.04940
G1 X242.941 Y38.000 E23.30722
G1 X243.440 Y38.031 E0.04945
G1 X243.942 Y38.127 E0.05051
G1 X244.428 Y38.285 E0.05051
G1 X244.891 Y38.503 E0.05051
G1 X245.323 Y38.777 E0.05051
G1 X245.716 Y39.103 E0.05051
G1 X246.066 Y39.475 E0.05051
G1 X246.367 Y39.889 E0.05051
G1 X246.613 Y40.337 E0.05051
G1 X246.801 Y40.812 E0.05051
G1 X246.929 Y41.307 E0.05051
G1 X246.981 Y41.725 E0.04162
M204 S1000
G1 X247.530 Y42.081 F10800.000
G1 X247.564 Y41.651
M204 S800
G1 F3786.863
G1 X247.580 Y41.777 E0.01255
G1 X247.580 Y168.223 E12.49393
G1 X247.507 Y168.803 E0.05782
G1 X247.361 Y169.370 E0.05780
G1 X247.146 Y169.914 E0.05783
G1 X246.864 Y170.426 E0.05779
G1 X246.520 Y170.900 E0.05782
G1 X246.119 Y171.327 E0.05783
G1 X245.669 Y171.699 E0.05781
G1 X245.175 Y172.013 E0.05784
G1 X244.645 Y172.262 E0.05779
G1 X244.089 Y172.443 E0.05783
G1 X243.514 Y172.553 E0.05781
G1 X242.919 Y172.590 E0.05886
G1 X7.080 Y172.590 E23.30302
G1 X6.486 Y172.553 E0.05889
G1 X5.912 Y172.443 E0.05774
G1 X5.354 Y172.262 E0.05791
G1 X4.825 Y172.014 E0.05776
G1 X4.331 Y171.699 E0.05783
G1 X3.880 Y171.327 E0.05783
G1 X3.479 Y170.900 E0.05784
G1 X3.136 Y170.427 E0.05781
G1 X2.854 Y169.914 E0.05777
G1 X2.639 Y169.370 E0.05783
G1 X2.494 Y168.803 E0.05781
G1 X2.420 Y168.223 E0.05783
G1 X2.420 Y41.778 E12.49392
G1 X2.494 Y41.197 E0.05782
G1 X2.639 Y40.630 E0.05782
G1 X2.854 Y40.086 E0.05782
G1 X3.136 Y39.573 E0.05779
G1 X3.479 Y39.100 E0.05780
G1 X3.880 Y38.674 E0.05782
G1 X4.331 Y38.301 E0.05784
G1 X4.825 Y37.987 E0.05781
G1 X5.354 Y37.738 E0.05779
G1 X5.912 Y37.557 E0.05790
G1 X6.486 Y37.447 E0.05774
G1 X7.081 Y37.410 E0.05890
G1 X242.919 Y37.410 E23.30300
G1 X243.463 Y37.444 E0.05386
G1 X244.090 Y37.558 E0.06295
G1 X244.645 Y37.738 E0.05765
G1 X245.175 Y37.987 E0.05782
G1 X245.669 Y38.301 E0.05782
G1 X246.119 Y38.674 E0.05782
G1 X246.520 Y39.100 E0.05781
G1 X246.864 Y39.573 E0.05782
G1 X247.146 Y40.086 E0.05781
G1 X247.361 Y40.630 E0.05782
G1 X247.507 Y41.197 E0.05782
G1 X247.553 Y41.562 E0.03638
M204 S1000
G1 X247.465 Y41.731 F10800.000
;Z:12.2
;HEIGHT:0.4
;BEFORE_LAYER_CHANGE
G92 E0.0
;12.2


G1 F8640.000
G1 X247.580 Y41.777 E-0.05010
G1 X247.580 Y44.852 E-0.70990
G1 E-0.04000 F2100.00000
G1 Z12.400 F10800.000
;AFTER_LAYER_CHANGE
;12.2
G1 X246.993 Y41.814
G1 Z12.200
G1 E0.80000 F2100.00000
M204 S800
G1 F3786.863
G1 X246.993 Y168.185 E12.48660
G1 X246.929 Y168.693 E0.05054
G1 X246.801 Y169.188 E0.05055
G1 X246.613 Y169.663 E0.05046
G1 X246.367 Y170.111 E0.05055
G1 X246.066 Y170.525 E0.05054
G1 X245.716 Y170.897 E0.05047
G1 X245.323 Y171.224 E0.05053
G1 X244.891 Y171.498 E0.05054
G1 X244.428 Y171.715 E0.05048
G1 X243.942 Y171.873 E0.05050
G1 X243.440 Y171.969 E0.05054
G1 X242.940 Y172.000 E0.04946
G1 X7.059 Y172.000 E23.30719
G1 X6.560 Y171.969 E0.04940
G1 X6.057 Y171.873 E0.05063
G1 X5.572 Y171.715 E0.05046
G1 X5.109 Y171.498 E0.05050
G1 X4.678 Y171.223 E0.05050
G1 X4.284 Y170.897 E0.05051
G1 X3.933 Y170.525 E0.05050
G1 X3.633 Y170.111 E0.05052
G1 X3.387 Y169.663 E0.05057
G1 X3.199 Y169.188 E0.05043
G1 X3.071 Y168.693 E0.05054
G1 X3.007 Y168.185 E0.05056
G1 X3.007 Y41.814 E12.48662
M73 Q37 S127
G1 X3.071 Y41.307 E0.05053
G1 X3.199 Y40.812 E0.05050
G1 X3.387 Y40.337 E0.05049
G1 X3.633 Y39.889 E0.05053
G1 X3.933 Y39.475 E0.05049
G1 X4.284 Y39.103 E0.05055
G1 X4.678 Y38.777 E0.05050
G1 X5.109 Y38.503 E0.05047
G1 X5.571 Y38.285 E0.05053
G1 X6.057 Y38.127 E0.05047
G1 X6.560 Y38.031 E0.05060
G1 X7.059 Y38.000 E0.04940
G1 X242.941 Y38.000 E23.30722
G1 X243.440 Y38.031 E0.04945
G1 X243.942 Y38.127 E0.05051
G1 X244.428 Y38.285 E0.05051
G1 X244.891 Y38.503 E0.05051
G1 X245.323 Y38.777 E0.05051
G1 X245.716 Y39.103 E0.05051
G1 X246.066 Y39.475 E0.05051
G1 X246.367 Y39.889 E0.05051
G1 X246.613 Y40.337 E0.05051
G1 X246.801 Y40.812 E0.05051
G1 X246.929 Y41.307 E0.05051
G1 X246.981 Y41.725 E0.04162
M204 S1000
G1 X247.530 Y42.081 F10800.000
G1 X247.564 Y41.651
M204 S800
G1 F3786.863
G1 X247.580 Y41.777 E0.01255
G1 X247.580 Y168.223 E12.49393
G1 X247.507 Y168.803 E0.05782
G1 X247.361 Y169.370 E0.05780
G1 X247.146 Y169.914 E0.05783
G1 X246.864 Y170.426 E0.05779
G1 X246.520 Y170.900 E0.05782
G1 X246.119 Y171.327 E0.05783
G1 X245.669 Y171.699 E0.05781
G1 X245.175 Y172.013 E0.05784
G1 X244.645 Y172.262 E0.05779
G1 X244.089 Y172.443 E0.05783
G1 X243.514 Y172.553 E0.05781
G1 X242.919 Y172.590 E0.05886
G1 X7.080 Y172.590 E23.30302
G1 X6.486 Y172.553 E0.05889
G1 X5.912 Y172.443 E0.05774
G1 X5.354 Y172.262 E0.05791
G1 X4.825 Y172.014 E0.05776
G1 X4.331 Y171.699 E0.05783
G1 X3.880 Y171.327 E0.05783
G1 X3.479 Y170.900 E0.05784
G1 X3.136 Y170.427 E0.05781
G1 X2.854 Y169.914 E0.05777
G1 X2.639 Y169.370 E0.05783
G1 X2.494 Y168.803 E0.05781
G1 X2.420 Y168.223 E0.05783
G1 X2.420 Y41.778 E12.49392
M73 P38 R127
G1 X2.494 Y41.197 E0.05782
G1 X2.639 Y40.630 E0.05782
G1 X2.854 Y40.086 E0.05782
G1 X3.136 Y39.573 E0.05779
G1 X3.479 Y39.100 E0.05780
G1 X3.880 Y38.674 E0.05782
G1 X4.331 Y38.301 E0.05784
G1 X4.825 Y37.987 E0.05781
G1 X5.354 Y37.738 E0.05779
G1 X5.912 Y37.557 E0.05790
G1 X6.486 Y37.447 E0.05774
G1 X7.081 Y37.410 E0.05890
G1 X242.919 Y37.410 E23.30300
G1 X243.462 Y37.444 E0.05369
G1 X244.090 Y37.558 E0.06313
G1 X244.645 Y37.738 E0.05765
G1 X245.175 Y37.987 E0.05782
G1 X245.669 Y38.301 E0.05782
G1 X246.119 Y38.674 E0.05782
G1 X246.520 Y39.100 E0.05781
G1 X246.864 Y39.573 E0.05782
G1 X247.146 Y40.086 E0.05781
G1 X247.361 Y40.630 E0.05782
G1 X247.507 Y41.197 E0.05782
G1 X247.553 Y41.562 E0.03638
M204 S1000
M73 Q38 S127
G1 X247.465 Y41.731 F10800.000
;Z:12.6
;HEIGHT:0.400001
;BEFORE_LAYER_CHANGE
G92 E0.0
;12.6


G1 F8640.000
G1 X247.580 Y41.777 E-0.05010
G1 X247.580 Y44.852 E-0.70990
G1 E-0.04000 F2100.00000
G1 Z12.800 F10800.000
;AFTER_LAYER_CHANGE
;12.6
G1 X246.993 Y41.814
G1 Z12.600
G1 E0.80000 F2100.00000
M204 S800
G1 F3786.863
G1 X246.993 Y168.185 E12.48660
G1 X246.929 Y168.693 E0.05054
G1 X246.801 Y169.188 E0.05055
G1 X246.613 Y169.663 E0.05046
G1 X246.367 Y170.111 E0.05055
G1 X246.066 Y170.525 E0.05054
G1 X245.716 Y170.897 E0.05047
G1 X245.323 Y171.224 E0.05053
G1 X244.891 Y171.498 E0.05054
G1 X244.428 Y171.715 E0.05048
G1 X243.942 Y171.873 E0.05050
G1 X243.440 Y171.969 E0.05054
G1 X242.940 Y172.000 E0.04946
G1 X7.059 Y172.000 E23.30719
G1 X6.560 Y171.969 E0.04940
G1 X6.057 Y171.873 E0.05063
G1 X5.572 Y171.715 E0.05046
G1 X5.109 Y171.498 E0.05050
G1 X4.678 Y171.223 E0.05050
G1 X4.284 Y170.897 E0.05051
G1 X3.933 Y170.525 E0.05050
G1 X3.633 Y170.111 E0.05052
G1 X3.387 Y169.663 E0.05057
G1 X3.199 Y169.188 E0.05043
G1 X3.071 Y168.693 E0.05054
G1 X3.007 Y168.185 E0.05056
G1 X3.007 Y41.814 E12.48662
G1 X3.071 Y41.307 E0.05053
G1 X3.199 Y40.812 E0.05050
G1 X3.387 Y40.337 E0.05049
G1 X3.633 Y39.889 E0.05053
G1 X3.933 Y39.475 E0.05049
G1 X4.284 Y39.103 E0.05055
G1 X4.678 Y38.777 E0.05050
G1 X5.109 Y38.503 E0.05047
G1 X5.571 Y38.285 E0.05053
G1 X6.057 Y38.127 E0.05047
G1 X6.560 Y38.031 E0.05060
G1 X7.059 Y38.000 E0.04940
G1 X242.941 Y38.000 E23.30722
G1 X243.440 Y38.031 E0.04945
G1 X243.942 Y38.127 E0.05051
G1 X244.428 Y38.285 E0.05051
G1 X244.891 Y38.503 E0.05051
G1 X245.323 Y38.777 E0.05051
G1 X245.716 Y39.103 E0.05051
G1 X246.066 Y39.475 E0.05051
G1 X246.367 Y39.889 E0.05051
G1 X246.613 Y40.337 E0.05051
G1 X246.801 Y40.812 E0.05051
G1 X246.929 Y41.307 E0.05051
G1 X246.981 Y41.725 E0.04162
M204 S1000
G1 X247.530 Y42.081 F10800.000
G1 X247.564 Y41.651
M204 S800
G1 F3786.863
G1 X247.580 Y41.777 E0.01255
G1 X247.580 Y168.223 E12.49393
G1 X247.507 Y168.803 E0.05782
G1 X247.361 Y169.370 E0.05780
G1 X247.146 Y169.914 E0.05783
G1 X246.864 Y170.426 E0.05779
G1 X246.520 Y170.900 E0.05782
G1 X246.119 Y171.327 E0.05783
G1 X245.669 Y171.699 E0.05781
G1 X245.175 Y172.013 E0.05784
G1 X244.645 Y172.262 E0.05779
G1 X244.089 Y172.443 E0.05783
G1 X243.514 Y172.553 E0.05781
G1 X242.919 Y172.590 E0.05886
G1 X7.080 Y172.590 E23.30302
G1 X6.486 Y172.553 E0.05889
G1 X5.912 Y172.443 E0.05774
G1 X5.354 Y172.262 E0.05791
G1 X4.825 Y172.014 E0.05776
G1 X4.331 Y171.699 E0.05783
G1 X3.880 Y171.327 E0.05783
G1 X3.479 Y170.900 E0.05784
G1 X3.136 Y170.427 E0.05781
G1 X2.854 Y169.914 E0.05777
G1 X2.639 Y169.370 E0.05783
G1 X2.494 Y168.803 E0.05781
G1 X2.420 Y168.223 E0.05783
G1 X2.420 Y41.778 E12.49392
M73 P38 R126
G1 X2.494 Y41.197 E0.05782
G1 X2.639 Y40.630 E0.05782
G1 X2.854 Y40.086 E0.05782
G1 X3.136 Y39.573 E0.05779
G1 X3.479 Y39.100 E0.05780
G1 X3.880 Y38.674 E0.05782
G1 X4.331 Y38.301 E0.05784
G1 X4.825 Y37.987 E0.05781
G1 X5.354 Y37.738 E0.05779
G1 X5.912 Y37.557 E0.05790
G1 X6.486 Y37.447 E0.05774
G1 X7.081 Y37.410 E0.05890
G1 X242.919 Y37.410 E23.30300
G1 X243.460 Y37.444 E0.05351
G1 X244.090 Y37.558 E0.06331
G1 X244.645 Y37.738 E0.05764
G1 X245.175 Y37.987 E0.05782
G1 X245.669 Y38.301 E0.05782
G1 X246.119 Y38.674 E0.05782
G1 X246.520 Y39.100 E0.05781
G1 X246.864 Y39.573 E0.05782
G1 X247.146 Y40.086 E0.05781
G1 X247.361 Y40.630 E0.05782
G1 X247.507 Y41.197 E0.05782
G1 X247.553 Y41.562 E0.03638
M204 S1000
G1 X247.465 Y41.731 F10800.000
;Z:13
;HEIGHT:0.4
;BEFORE_LAYER_CHANGE
G92 E0.0
;13


G1 F8640.000
G1 X247.580 Y41.777 E-0.05010
G1 X247.580 Y44.852 E-0.70990
G1 E-0.04000 F2100.00000
G1 Z13.200 F10800.000
;AFTER_LAYER_CHANGE
;13
G1 X246.993 Y41.814
G1 Z13.000
G1 E0.80000 F2100.00000
M204 S800
G1 F3786.863
G1 X246.993 Y168.185 E12.48660
G1 X246.929 Y168.693 E0.05054
G1 X246.801 Y169.188 E0.05055
G1 X246.613 Y169.663 E0.05046
G1 X246.367 Y170.111 E0.05055
G1 X246.066 Y170.525 E0.05054
G1 X245.716 Y170.897 E0.05047
G1 X245.323 Y171.224 E0.05053
G1 X244.891 Y171.498 E0.05054
G1 X244.428 Y171.715 E0.05048
G1 X243.942 Y171.873 E0.05050
G1 X243.440 Y171.969 E0.05054
G1 X242.940 Y172.000 E0.04946
G1 X7.059 Y172.000 E23.30719
G1 X6.560 Y171.969 E0.04940
G1 X6.057 Y171.873 E0.05063
G1 X5.572 Y171.715 E0.05046
G1 X5.109 Y171.498 E0.05050
G1 X4.678 Y171.223 E0.05050
G1 X4.284 Y170.897 E0.05051
G1 X3.933 Y170.525 E0.05050
G1 X3.633 Y170.111 E0.05052
G1 X3.387 Y169.663 E0.05057
G1 X3.199 Y169.188 E0.05043
G1 X3.071 Y168.693 E0.05054
G1 X3.007 Y168.185 E0.05056
G1 X3.007 Y41.814 E12.48662
G1 X3.071 Y41.307 E0.05053
G1 X3.199 Y40.812 E0.05050
G1 X3.387 Y40.337 E0.05049
G1 X3.633 Y39.889 E0.05053
G1 X3.933 Y39.475 E0.05049
G1 X4.284 Y39.103 E0.05055
G1 X4.678 Y38.777 E0.05050
G1 X5.109 Y38.503 E0.05047
G1 X5.571 Y38.285 E0.05053
G1 X6.057 Y38.127 E0.05047
G1 X6.560 Y38.031 E0.05060
G1 X7.059 Y38.000 E0.04940
G1 X242.941 Y38.000 E23.30722
G1 X243.440 Y38.031 E0.04945
G1 X243.942 Y38.127 E0.05051
G1 X244.428 Y38.285 E0.05051
G1 X244.891 Y38.503 E0.05051
G1 X245.323 Y38.777 E0.05051
G1 X245.716 Y39.103 E0.05051
G1 X246.066 Y39.475 E0.05051
G1 X246.367 Y39.889 E0.05051
G1 X246.613 Y40.337 E0.05051
G1 X246.801 Y40.812 E0.05051
G1 X246.929 Y41.307 E0.05051
G1 X246.981 Y41.725 E0.04162
M204 S1000
G1 X247.530 Y42.081 F10800.000
G1 X247.564 Y41.651
M204 S800
G1 F3786.863
G1 X247.580 Y41.777 E0.01255
G1 X247.580 Y168.223 E12.49393
G1 X247.507 Y168.803 E0.05782
G1 X247.361 Y169.370 E0.05780
G1 X247.146 Y169.914 E0.05783
G1 X246.864 Y170.426 E0.05779
G1 X246.520 Y170.900 E0.05782
G1 X246.119 Y171.327 E0.05783
G1 X245.669 Y171.699 E0.05781
G1 X245.175 Y172.013 E0.05784
G1 X244.645 Y172.262 E0.05779
G1 X244.089 Y172.443 E0.05783
G1 X243.514 Y172.553 E0.05781
G1 X242.919 Y172.590 E0.05886
G1 X7.080 Y172.590 E23.30302
M73 Q38 S126
G1 X6.486 Y172.553 E0.05889
G1 X5.912 Y172.443 E0.05774
G1 X5.354 Y172.262 E0.05791
G1 X4.825 Y172.014 E0.05776
G1 X4.331 Y171.699 E0.05783
G1 X3.880 Y171.327 E0.05783
G1 X3.479 Y170.900 E0.05784
G1 X3.136 Y170.427 E0.05781
G1 X2.854 Y169.914 E0.05777
G1 X2.639 Y169.370 E0.05783
G1 X2.494 Y168.803 E0.05781
G1 X2.420 Y168.223 E0.05783
G1 X2.420 Y41.778 E12.49392
G1 X2.494 Y41.197 E0.05782
G1 X2.639 Y40.630 E0.05782
G1 X2.854 Y40.086 E0.05782
G1 X3.136 Y39.573 E0.05779
