; generated by PrusaSlicer 2.3.0-alpha3+win64 on 2020-11-15 at 05:26:05 UTC


;
;

;
;
; 

; external perimeters extrusion width = 0.68mm
; perimeters extrusion width = 0.68mm
; infill extrusion width = 0.68mm
; solid infill extrusion width = 0.68mm
; top infill extrusion width = 0.60mm
; first layer extrusion width = 0.65mm

M73 P0 R205
M73 Q0 S205
M201 X1000 Y1000 Z200 E5000 ; sets maximum accelerations, mm/sec^2
M203 X200 Y200 Z12 E120 ; sets maximum feedrates, mm/sec
M204 P1250 R1250 T1250 ; sets acceleration (P, T) and retract acceleration (R), mm/sec^2
M205 X8.00 Y8.00 Z0.40 E4.50 ; sets the jerk limits, mm/sec
M205 S0 T0 ; sets the minimum extruding and travel feed rate, mm/sec
M107
;TYPE:Custom
M862.3 P "MK3S" ; printer model check
M862.1 P0.6 ; nozzle diameter check
M115 U3.9.1 ; tell printer latest fw version
G90 ; use absolute coordinates
M83 ; extruder relative mode
M104 S215 ; set extruder temp
M140 S65 ; set bed temp
M190 S65 ; wait for bed temp
M109 S215 ; wait for extruder temp
G28 W ; home all without mesh bed level
G80 ; mesh bed leveling
G1 Y-3.0 F1000.0 ; go outside print area
G92 E0.0
G1 X60.0 E9.0 F1000.0 ; intro line
G1 X100.0 E12.5 F1000.0 ; intro line
G92 E0.0
M221 S95
G21 ; set units to millimeters
G90 ; use absolute coordinates
M83 ; use relative distances for extrusion
M900 K0.04 ; Filament gcode LA 1.5
M900 K18 ; Filament gcode LA 1.0
;Z:0.2
;HEIGHT:0.2
;BEFORE_LAYER_CHANGE
G92 E0.0
;0.2


G1 E-0.80000 F2100.00000
G1 Z0.600 F10800.000
;AFTER_LAYER_CHANGE
;0.2
G1 X6.585 Y38.235
G1 Z0.200
G1 E0.80000 F2100.00000
M204 S1000
;TYPE:Perimeter
G1 F3000.000
G1 X7.105 Y38.202 E0.02632
G1 X242.894 Y38.202 E11.90236
M73 P0 R204
G1 X243.414 Y38.235 E0.02629
G1 X243.891 Y38.326 E0.02453
G1 X244.353 Y38.476 E0.02450
G1 X244.792 Y38.682 E0.02451
G1 X245.202 Y38.942 E0.02448
G1 X245.576 Y39.252 E0.02455
G1 X245.908 Y39.606 E0.02448
G1 X246.194 Y39.999 E0.02451
G1 X246.428 Y40.424 E0.02450
G1 X246.606 Y40.875 E0.02451
G1 X246.727 Y41.346 E0.02451
G1 X246.788 Y41.827 E0.02451
G1 X246.788 Y168.173 E6.37778
G1 X246.727 Y168.654 E0.02451
G1 X246.606 Y169.125 E0.02450
G1 X246.428 Y169.576 E0.02451
G1 X246.194 Y170.001 E0.02449
G1 X245.908 Y170.394 E0.02452
G1 X245.576 Y170.748 E0.02451
G1 X245.202 Y171.057 E0.02451
G1 X244.792 Y171.318 E0.02451
G1 X244.353 Y171.524 E0.02447
G1 X243.891 Y171.674 E0.02453
G1 X243.415 Y171.766 E0.02449
G1 X242.895 Y171.798 E0.02629
G1 X7.105 Y171.798 E11.90240
G1 X6.585 Y171.766 E0.02630
G1 X6.109 Y171.674 E0.02446
G1 X5.646 Y171.524 E0.02458
G1 X5.208 Y171.318 E0.02445
G1 X4.798 Y171.057 E0.02452
G1 X4.423 Y170.748 E0.02453
G1 X4.091 Y170.394 E0.02450
G1 X3.806 Y170.001 E0.02449
G1 X3.572 Y169.576 E0.02448
G1 X3.394 Y169.125 E0.02452
G1 X3.273 Y168.654 E0.02452
G1 X3.212 Y168.172 E0.02451
G1 X3.212 Y41.828 E6.37775
G1 X3.273 Y41.346 E0.02451
G1 X3.394 Y40.875 E0.02452
G1 X3.572 Y40.424 E0.02452
G1 X3.806 Y39.998 E0.02449
G1 X4.091 Y39.606 E0.02448
G1 X4.423 Y39.252 E0.02450
G1 X4.798 Y38.943 E0.02452
G1 X5.208 Y38.682 E0.02451
G1 X5.646 Y38.476 E0.02448
G1 X6.109 Y38.326 E0.02455
G1 X6.497 Y38.252 E0.01993
G1 X6.383 Y37.655 F10800.000
;TYPE:External perimeter
G1 F3000.000
G1 X6.509 Y37.631 E0.00647
G1 X7.086 Y37.595 E0.02921
G1 X242.913 Y37.595 E11.90428
G1 X243.490 Y37.631 E0.02918
G1 X244.043 Y37.737 E0.02838
G1 X244.577 Y37.910 E0.02836
G1 X245.085 Y38.149 E0.02836
G1 X245.559 Y38.450 E0.02834
G1 X245.993 Y38.809 E0.02841
G1 X246.377 Y39.218 E0.02834
G1 X246.707 Y39.673 E0.02836
G1 X246.978 Y40.165 E0.02836
G1 X247.185 Y40.687 E0.02836
G1 X247.325 Y41.232 E0.02836
G1 X247.395 Y41.789 E0.02836
G1 X247.395 Y168.211 E6.38163
G1 X247.325 Y168.768 E0.02836
G1 X247.185 Y169.312 E0.02835
G1 X246.978 Y169.835 E0.02837
G1 X246.707 Y170.327 E0.02835
G1 X246.377 Y170.782 E0.02837
G1 X245.993 Y171.192 E0.02837
G1 X245.560 Y171.550 E0.02836
G1 X245.085 Y171.851 E0.02837
G1 X244.577 Y172.090 E0.02834
G1 X244.042 Y172.264 E0.02837
G1 X243.491 Y172.369 E0.02836
G1 X242.914 Y172.405 E0.02919
G1 X7.086 Y172.405 E11.90430
G1 X6.509 Y172.369 E0.02920
G1 X5.958 Y172.264 E0.02832
G1 X5.422 Y172.090 E0.02842
G1 X4.914 Y171.851 E0.02833
G1 X4.440 Y171.550 E0.02837
G1 X4.007 Y171.191 E0.02837
G1 X3.622 Y170.782 E0.02837
G1 X3.292 Y170.327 E0.02835
G1 X3.022 Y169.835 E0.02834
G1 X2.815 Y169.313 E0.02837
G1 X2.676 Y168.768 E0.02836
G1 X2.605 Y168.211 E0.02837
G1 X2.605 Y41.789 E6.38162
G1 X2.676 Y41.232 E0.02837
G1 X2.815 Y40.687 E0.02837
G1 X3.022 Y40.165 E0.02836
G1 X3.292 Y39.673 E0.02835
G1 X3.622 Y39.218 E0.02835
G1 X4.007 Y38.809 E0.02836
G1 X4.440 Y38.450 E0.02837
G1 X4.914 Y38.149 E0.02836
G1 X5.423 Y37.910 E0.02835
G1 X5.958 Y37.737 E0.02840
G1 X6.295 Y37.672 E0.01731
G1 X6.469 Y37.750 F10800.000
G1 F8640.000
G1 X6.509 Y37.631 E-0.05040
G1 X7.086 Y37.595 E-0.13361
G1 X9.581 Y37.595 E-0.57599
G1 E-0.04000 F2100.00000
G1 Z0.800 F10800.000
G1 X6.839 Y38.675
G1 Z0.200
G1 E0.80000 F2100.00000
;TYPE:Solid infill
G1 F3000.000
G1 X5.494 Y41.132 E0.14138
G1 X4.171 Y43.677 E0.14478
G1 X3.667 Y44.697 E0.05746
G1 F8640.000
G1 X4.171 Y43.677 E-0.26282
G1 X5.164 Y41.766 E-0.49718
G1 E-0.04000 F2100.00000
G1 Z0.800 F10800.000
G1 X3.667 Y43.338
G1 Z0.200
G1 E0.80000 F2100.00000
G1 F3000.000
G1 X4.723 Y41.290 E0.11632
G1 X6.063 Y38.819 E0.14187
G1 F8640.000
G1 X4.723 Y41.290 E-0.64895
G1 X4.503 Y41.717 E-0.11105
G1 E-0.04000 F2100.00000
G1 Z0.800 F10800.000
G1 X5.128 Y39.272
G1 Z0.200
G1 E0.80000 F2100.00000
G1 F3000.000
G1 X4.405 Y40.594 E0.07601
G1 X3.667 Y42.014 E0.08078
G1 F8640.000
G1 X4.405 Y40.594 E-0.36950
G1 X5.128 Y39.272 E-0.34768
G1 E-0.08282 F2100.00000
G1 Z0.800 F10800.000
G1 X3.667 Y46.075
G1 Z0.200
G1 E0.80000 F2100.00000
G1 F3000.000
G1 X4.082 Y45.211 E0.04836
G1 X5.376 Y42.659 E0.14445
G1 X6.723 Y40.134 E0.14445
G1 X7.553 Y38.657 E0.08550
G1 X8.246 Y38.657 F10800.000
G1 F3000.000
G1 X7.043 Y40.816 E0.12472
G1 X5.707 Y43.339 E0.14413
G1 X4.425 Y45.890 E0.14413
G1 X3.667 Y47.481 E0.08896
G1 F8640.000
G1 X4.425 Y45.890 E-0.40691
G1 X5.112 Y44.524 E-0.35309
G1 E-0.04000 F2100.00000
G1 Z0.800 F10800.000
G1 X3.667 Y48.911
M73 Q0 S204
G1 Z0.200
G1 E0.80000 F2100.00000
G1 F3000.000
G1 X5.186 Y45.718 E0.17849
G1 X6.475 Y43.178 E0.14380
G1 X7.817 Y40.665 E0.14380
G1 X8.945 Y38.657 E0.11626
G1 F8640.000
G1 X7.817 Y40.665 E-0.53180
G1 X7.351 Y41.537 E-0.22820
G1 E-0.04000 F2100.00000
G1 Z0.800 F10800.000
G1 X12.457 Y38.657
G1 Z0.200
G1 E0.80000 F2100.00000
G1 F3000.000
G1 X11.592 Y40.134 E0.08637
G1 X10.222 Y42.595 E0.14216
G1 X8.906 Y45.084 E0.14216
G1 X7.643 Y47.601 E0.14216
G1 X6.435 Y50.145 E0.14216
G1 X5.282 Y52.714 E0.14216
G1 X4.185 Y55.308 E0.14215
G1 X3.667 Y56.608 E0.07063
G1 F8640.000
G1 X4.185 Y55.308 E-0.32309
G1 X4.922 Y53.565 E-0.43691
G1 E-0.04000 F2100.00000
G1 Z0.800 F10800.000
G1 X3.667 Y54.980
G1 Z0.200
G1 E0.80000 F2100.00000
G1 F3000.000
G1 X4.948 Y51.965 E0.16536
G1 X6.114 Y49.395 E0.14249
G1 X7.335 Y46.850 E0.14249
G1 X8.611 Y44.332 E0.14249
G1 X9.941 Y41.842 E0.14249
G1 X11.324 Y39.382 E0.14249
G1 X11.752 Y38.657 E0.04245
G1 X11.050 Y38.657 F10800.000
G1 F3000.000
G1 X10.110 Y40.287 E0.09497
G1 X8.750 Y42.768 E0.14282
G1 X7.443 Y45.278 E0.14282
G1 X6.191 Y47.815 E0.14282
G1 X4.993 Y50.378 E0.14282
G1 X3.667 Y53.406 E0.16688
G1 F8640.000
G1 X4.987 Y50.391 E-0.76000
G1 E-0.04000 F2100.00000
G1 Z0.800 F10800.000
G1 X3.667 Y51.880
G1 Z0.200
G1 E0.80000 F2100.00000
G1 F3000.000
G1 X4.258 Y50.528 E0.07446
G1 X5.450 Y47.955 E0.14314
G1 X6.697 Y45.408 E0.14314
G1 X7.998 Y42.889 E0.14315
G1 X9.353 Y40.397 E0.14315
G1 X10.347 Y38.657 E0.10117
G1 X9.648 Y38.657 F10800.000
G1 F3000.000
G1 X9.049 Y39.697 E0.06056
G1 X7.682 Y42.189 E0.14347
G1 X6.370 Y44.710 E0.14347
G1 X5.111 Y47.258 E0.14347
G1 X3.667 Y50.375 E0.17339
G1 F8640.000
G1 X5.051 Y47.388 E-0.76000
G1 E-0.04000 F2100.00000
G1 Z0.800 F10800.000
G1 X3.667 Y58.265
G1 Z0.200
G1 E0.80000 F2100.00000
G1 F3000.000
G1 X4.879 Y55.215 E0.16568
G1 X5.981 Y52.631 E0.14182
G1 X7.139 Y50.071 E0.14182
G1 X8.351 Y47.536 E0.14183
G1 X9.618 Y45.028 E0.14183
G1 X10.939 Y42.548 E0.14183
G1 X12.313 Y40.098 E0.14183
G1 X13.162 Y38.657 E0.08439
G1 X13.866 Y38.657 F10800.000
G1 F3000.000
G1 X13.487 Y39.286 E0.03704
G1 X12.092 Y41.717 E0.14150
G1 X10.750 Y44.178 E0.14150
G1 X9.462 Y46.667 E0.14150
G1 X8.227 Y49.184 E0.14150
G1 X7.048 Y51.727 E0.14149
G1 X5.924 Y54.295 E0.14149
G1 X4.855 Y56.886 E0.14149
G1 X3.667 Y59.986 E0.16760
G1 F8640.000
G1 X4.845 Y56.913 E-0.76000
G1 E-0.04000 F2100.00000
G1 Z0.800 F10800.000
G1 X3.667 Y61.775
G1 Z0.200
G1 E0.80000 F2100.00000
G1 F3000.000
G1 X4.180 Y60.337 E0.07706
G1 X5.176 Y57.724 E0.14116
G1 X6.229 Y55.134 E0.14116
G1 X7.337 Y52.566 E0.14116
G1 X8.501 Y50.024 E0.14116
G1 X9.720 Y47.507 E0.14116
G1 X10.993 Y45.017 E0.14116
G1 X12.320 Y42.555 E0.14116
G1 X13.701 Y40.123 E0.14117
G1 X14.575 Y38.657 E0.08615
G1 X15.283 Y38.657 F10800.000
G1 F3000.000
G1 X14.363 Y40.192 E0.09032
G1 X12.981 Y42.616 E0.14083
G1 X11.652 Y45.069 E0.14083
G1 X10.377 Y47.550 E0.14083
G1 X9.156 Y50.058 E0.14083
G1 X7.990 Y52.593 E0.14083
G1 X6.879 Y55.152 E0.14083
G1 X5.825 Y57.735 E0.14083
G1 X4.826 Y60.340 E0.14083
G1 X3.667 Y63.618 E0.17549
G1 F8640.000
G1 X4.765 Y60.514 E-0.76000
G1 E-0.04000 F2100.00000
G1 Z0.800 F10800.000
G1 X3.667 Y65.545
G1 Z0.200
G1 E0.80000 F2100.00000
G1 F3000.000
G1 X3.917 Y64.764 E0.04140
G1 X4.821 Y62.132 E0.14049
G1 X5.783 Y59.520 E0.14049
G1 X6.801 Y56.930 E0.14049
G1 X7.876 Y54.362 E0.14049
G1 X9.006 Y51.819 E0.14049
G1 X10.192 Y49.301 E0.14050
G1 X11.432 Y46.809 E0.14050
G1 X12.726 Y44.345 E0.14050
G1 X14.074 Y41.910 E0.14050
G1 X15.475 Y39.505 E0.14050
G1 X15.993 Y38.657 E0.05013
G1 X16.702 Y38.657 F10800.000
G1 F3000.000
G1 X15.614 Y40.459 E0.10626
G1 X14.231 Y42.867 E0.14017
G1 X12.901 Y45.305 E0.14016
G1 X11.625 Y47.770 E0.14016
G1 X10.403 Y50.264 E0.14016
G1 X9.235 Y52.783 E0.14016
G1 X8.123 Y55.327 E0.14016
G1 X7.067 Y57.895 E0.14016
G1 X6.068 Y60.485 E0.14016
G1 X5.125 Y63.097 E0.14016
G1 X4.239 Y65.728 E0.14015
G1 X3.667 Y67.560 E0.09686
G1 F8640.000
G1 X4.239 Y65.728 E-0.44307
G1 X4.677 Y64.428 E-0.31693
G1 E-0.04000 F2100.00000
G1 Z0.800 F10800.000
G1 X3.667 Y69.683
G1 Z0.200
G1 E0.80000 F2100.00000
G1 F3000.000
G1 X4.006 Y68.509 E0.06168
G1 X4.833 Y65.865 E0.13982
G1 X5.718 Y63.241 E0.13982
G1 X6.659 Y60.636 E0.13982
G1 X7.658 Y58.052 E0.13982
G1 X8.713 Y55.491 E0.13982
G1 X9.824 Y52.954 E0.13982
G1 X10.991 Y50.441 E0.13982
G1 X12.212 Y47.955 E0.13983
G1 X13.487 Y45.496 E0.13983
G1 X14.816 Y43.066 E0.13983
G1 X16.198 Y40.665 E0.13983
G1 X17.413 Y38.657 E0.11844
G1 F8640.000
G1 X16.198 Y40.665 E-0.54178
G1 X15.726 Y41.484 E-0.21822
G1 E-0.04000 F2100.00000
G1 Z0.800 F10800.000
G1 X32.720 Y38.657
G1 Z0.200
G1 E0.80000 F2100.00000
G1 F3000.000
G1 X31.733 Y40.042 E0.08581
G1 X30.259 Y42.216 E0.13259
G1 X28.835 Y44.423 E0.13259
G1 X27.463 Y46.663 E0.13259
G1 X26.143 Y48.934 E0.13259
G1 X24.875 Y51.234 E0.13259
G1 X23.661 Y53.564 E0.13259
G1 X22.502 Y55.920 E0.13259
G1 X21.397 Y58.303 E0.13259
G1 X20.347 Y60.711 E0.13258
G1 X19.354 Y63.142 E0.13258
G1 X18.417 Y65.596 E0.13258
G1 X17.537 Y68.070 E0.13258
G1 X16.714 Y70.565 E0.13258
G1 X15.949 Y73.077 E0.13258
G1 X15.243 Y75.607 E0.13258
G1 X14.595 Y78.152 E0.13258
G1 X14.006 Y80.712 E0.13257
G1 X13.476 Y83.284 E0.13257
G1 X13.006 Y85.868 E0.13257
G1 X12.596 Y88.462 E0.13257
G1 X12.246 Y91.065 E0.13257
G1 X11.957 Y93.675 E0.13257
G1 X11.727 Y96.291 E0.13257
G1 X11.558 Y98.912 E0.13256
G1 X11.450 Y101.535 E0.13256
G1 X11.403 Y104.161 E0.13256
G1 X11.416 Y106.787 E0.13256
G1 X11.490 Y109.412 E0.13256
G1 X11.624 Y112.035 E0.13256
G1 X11.819 Y114.653 E0.13256
G1 X12.075 Y117.267 E0.13256
G1 X12.391 Y119.874 E0.13255
G1 X12.767 Y122.473 E0.13255
G1 X13.203 Y125.062 E0.13255
G1 X13.699 Y127.641 E0.13255
G1 X14.254 Y130.207 E0.13255
G1 X14.869 Y132.760 E0.13255
G1 X15.542 Y135.298 E0.13255
G1 X16.274 Y137.820 E0.13255
G1 X17.064 Y140.324 E0.13254
G1 X17.912 Y142.809 E0.13254
G1 X18.816 Y145.274 E0.13254
G1 X19.778 Y147.717 E0.13254
G1 X20.796 Y150.137 E0.13254
G1 X21.869 Y152.534 E0.13254
G1 X22.998 Y154.904 E0.13254
G1 X24.181 Y157.248 E0.13253
G1 X25.418 Y159.564 E0.13253
G1 X26.708 Y161.851 E0.13253
G1 X28.050 Y164.107 E0.13253
G1 X29.445 Y166.331 E0.13253
G1 X30.890 Y168.523 E0.13253
G1 X32.386 Y170.681 E0.13253
G1 X32.868 Y171.343 E0.04132
G1 X33.614 Y171.343 F10800.000
G1 F3000.000
G1 X32.338 Y169.559 E0.11071
G1 X30.865 Y167.395 E0.13217
G1 X29.442 Y165.197 E0.13217
G1 X28.070 Y162.966 E0.13218
G1 X26.750 Y160.705 E0.13218
G1 X25.483 Y158.413 E0.13218
G1 X24.270 Y156.093 E0.13218
G1 X23.110 Y153.745 E0.13218
G1 X22.006 Y151.371 E0.13218
G1 X20.956 Y148.972 E0.13218
G1 X19.963 Y146.549 E0.13218
G1 X19.026 Y144.104 E0.13219
G1 X18.146 Y141.637 E0.13219
G1 X17.323 Y139.151 E0.13219
G1 X16.558 Y136.647 E0.13219
G1 X15.852 Y134.125 E0.13219
G1 X15.204 Y131.588 E0.13219
G1 X14.615 Y129.036 E0.13219
G1 X14.085 Y126.471 E0.13219
G1 X13.615 Y123.895 E0.13220
G1 X13.205 Y121.308 E0.13220
G1 X12.854 Y118.713 E0.13220
G1 X12.565 Y116.110 E0.13220
G1 X12.335 Y113.501 E0.13220
G1 X12.166 Y110.888 E0.13220
G1 X12.058 Y108.271 E0.13220
G1 X12.010 Y105.653 E0.13221
G1 X12.023 Y103.034 E0.13221
G1 X12.097 Y100.416 E0.13221
G1 X12.231 Y97.800 E0.13221
G1 X12.426 Y95.188 E0.13221
G1 X12.681 Y92.581 E0.13221
G1 X12.997 Y89.981 E0.13221
G1 X13.373 Y87.389 E0.13221
G1 X13.809 Y84.806 E0.13222
G1 X14.305 Y82.235 E0.13222
G1 X14.860 Y79.675 E0.13222
G1 X15.474 Y77.129 E0.13222
G1 X16.147 Y74.597 E0.13222
G1 X16.879 Y72.082 E0.13222
G1 X17.669 Y69.585 E0.13222
G1 X18.516 Y67.106 E0.13223
G1 X19.421 Y64.648 E0.13223
G1 X20.382 Y62.211 E0.13223
G1 X21.400 Y59.797 E0.13223
G1 X22.473 Y57.408 E0.13223
G1 X23.601 Y55.044 E0.13223
G1 X24.784 Y52.706 E0.13223
G1 X26.021 Y50.397 E0.13223
G1 X27.311 Y48.117 E0.13224
G1 X28.653 Y45.868 E0.13224
G1 X30.047 Y43.650 E0.13224
G1 X31.493 Y41.465 E0.13224
G1 X32.988 Y39.314 E0.13224
G1 X33.467 Y38.657 E0.04103
G1 F8640.000
G1 X32.988 Y39.314 E-0.18768
G1 X31.573 Y41.349 E-0.57232
G1 E-0.04000 F2100.00000
G1 Z0.800 F10800.000
G1 X40.304 Y38.657
G1 Z0.200
G1 E0.80000 F2100.00000
G1 F3000.000
G1 X39.759 Y39.348 E0.04440
G1 X38.226 Y41.393 E0.12901
G1 X36.742 Y43.473 E0.12901
G1 X35.307 Y45.588 E0.12900
G1 X33.923 Y47.737 E0.12900
G1 X32.591 Y49.917 E0.12900
G1 X31.310 Y52.129 E0.12900
G1 X30.083 Y54.370 E0.12900
G1 X28.909 Y56.640 E0.12900
G1 X27.789 Y58.937 E0.12900
G1 X26.725 Y61.261 E0.12900
G1 X25.716 Y63.608 E0.12899
G1 X24.763 Y65.979 E0.12899
G1 X23.866 Y68.372 E0.12899
G1 X23.027 Y70.786 E0.12899
G1 X22.245 Y73.218 E0.12899
G1 X21.521 Y75.669 E0.12899
G1 X20.856 Y78.136 E0.12899
G1 X20.249 Y80.618 E0.12898
G1 X19.702 Y83.114 E0.12898
G1 X19.214 Y85.622 E0.12898
G1 X18.786 Y88.141 E0.12898
G1 X18.417 Y90.670 E0.12898
G1 X18.109 Y93.206 E0.12898
G1 X17.861 Y95.749 E0.12898
G1 X17.674 Y98.297 E0.12897
G1 X17.548 Y100.849 E0.12897
G1 X17.482 Y103.403 E0.12897
G1 X17.476 Y105.958 E0.12897
G1 X17.532 Y108.513 E0.12897
G1 X17.648 Y111.065 E0.12897
G1 X17.824 Y113.614 E0.12897
G1 X18.062 Y116.157 E0.12896
G1 X18.359 Y118.695 E0.12896
G1 X18.717 Y121.224 E0.12896
G1 X19.135 Y123.745 E0.12896
G1 X19.612 Y126.254 E0.12896
G1 X20.149 Y128.752 E0.12896
G1 X20.745 Y131.236 E0.12896
G1 X21.401 Y133.705 E0.12896
G1 X22.114 Y136.158 E0.12895
G1 X22.886 Y138.594 E0.12895
G1 X23.715 Y141.010 E0.12895
G1 X24.601 Y143.406 E0.12895
G1 X25.544 Y145.780 E0.12895
G1 X26.544 Y148.131 E0.12895
G1 X27.599 Y150.457 E0.12895
G1 X28.708 Y152.758 E0.12894
G1 X29.872 Y155.031 E0.12894
G1 X31.090 Y157.277 E0.12894
G1 X32.361 Y159.493 E0.12894
G1 X33.684 Y161.678 E0.12894
G1 X35.059 Y163.830 E0.12894
G1 X36.484 Y165.950 E0.12894
G1 X37.960 Y168.035 E0.12893
G1 X39.484 Y170.084 E0.12893
G1 X40.467 Y171.343 E0.08061
G1 X41.238 Y171.343 F10800.000
G1 F3000.000
G1 X39.996 Y169.754 E0.10181
G1 X38.475 Y167.711 E0.12857
G1 X37.003 Y165.632 E0.12857
G1 X35.581 Y163.519 E0.12857
G1 X34.210 Y161.373 E0.12857
G1 X32.890 Y159.194 E0.12857
G1 X31.623 Y156.985 E0.12858
G1 X30.408 Y154.746 E0.12858
G1 X29.247 Y152.478 E0.12858
G1 X28.141 Y150.184 E0.12858
