; generated by PrusaSlicer 2.3.0-alpha1+win64 on 2020-10-21 at 11:32:51 UTC

; 

; external perimeters extrusion width = 0.60mm
; perimeters extrusion width = 0.50mm
; infill extrusion width = 0.50mm
; solid infill extrusion width = 0.50mm
; top infill extrusion width = 0.45mm
; first layer extrusion width = 0.42mm

M73 P0 R76
M73 Q0 S77
M201 X1000 Y1000 Z200 E5000 ; sets maximum accelerations, mm/sec^2
M203 X200 Y200 Z12 E120 ; sets maximum feedrates, mm/sec
M204 P1250 R1250 T1250 ; sets acceleration (P, T) and retract acceleration (R), mm/sec^2
M205 X8.00 Y8.00 Z0.40 E4.50 ; sets the jerk limits, mm/sec
M205 S0 T0 ; sets the minimum extruding and travel feed rate, mm/sec
M107
;TYPE:Custom
M862.3 P "MK3S" ; printer model check
M862.1 P0.4 ; nozzle diameter check
M115 U3.9.0 ; tell printer latest fw version
G90 ; use absolute coordinates
M83 ; extruder relative mode
M104 S215 ; set extruder temp
M140 S60 ; set bed temp
M190 S60 ; wait for bed temp
M109 S215 ; wait for extruder temp
G28 W ; home all without mesh bed level
G80 ; mesh bed leveling
G1 Y-3.0 F1000.0 ; go outside print area
G92 E0.0
G1 X60.0 E9.0 F1000.0 ; intro line
M73 Q0 S76
G1 X100.0 E12.5 F1000.0 ; intro line
G92 E0.0
M221 S95
G21 ; set units to millimeters
G90 ; use absolute coordinates
M83 ; use relative distances for extrusion
M900 K30 ; Filament gcode
;Z:0.2
;HEIGHT:0.2
;BEFORE_LAYER_CHANGE
G92 E0.0
;0.2


G1 E-0.80000 F2100.00000
G1 Z0.600 F10800.000
;AFTER_LAYER_CHANGE
;0.2
G1 X104.117 Y87.317
G1 Z0.200
G1 E0.80000 F2100.00000
M204 S1000
;TYPE:Skirt
G1 F1200.000
G1 X105.397 Y85.909 E0.05965
G1 X106.603 Y84.743 E0.05261
G1 X107.885 Y83.649 E0.05285
G1 X109.407 Y82.514 E0.05953
G1 X110.818 Y81.597 E0.05273
G1 X112.343 Y80.739 E0.05488
G1 X113.920 Y79.979 E0.05488
G1 X115.478 Y79.347 E0.05273
G1 X117.284 Y78.747 E0.05965
G1 X118.915 Y78.321 E0.05285
G1 X120.625 Y77.987 E0.05464
G1 X122.444 Y77.756 E0.05751
G1 X124.123 Y77.649 E0.05273
G1 X125.805 Y77.648 E0.05273
G1 X127.700 Y77.770 E0.05953
G1 X129.371 Y77.987 E0.05285
G1 X131.085 Y78.321 E0.05476
G1 X132.859 Y78.789 E0.05751
G1 X134.454 Y79.321 E0.05273
G1 X136.073 Y79.976 E0.05476
G1 X137.724 Y80.775 E0.05751
G1 X139.189 Y81.601 E0.05273
G1 X140.656 Y82.556 E0.05488
G1 X142.120 Y83.654 E0.05739
G1 X143.400 Y84.745 E0.05273
G1 X144.657 Y85.963 E0.05488
G1 X145.834 Y87.259 E0.05488
G1 X146.884 Y88.573 E0.05273
G1 X147.934 Y90.072 E0.05739
G1 X148.841 Y91.568 E0.05488
G1 X149.620 Y93.059 E0.05273
G1 X150.366 Y94.734 E0.05751
G1 X150.969 Y96.374 E0.05476
G1 X151.449 Y97.985 E0.05273
G1 X151.861 Y99.773 E0.05751
G1 X152.140 Y101.501 E0.05488
G1 X152.303 Y103.175 E0.05273
G1 X152.363 Y105.072 E0.05953
G1 X152.308 Y106.753 E0.05273
G1 X152.148 Y108.427 E0.05273
G1 X151.858 Y110.238 E0.05751
G1 X151.471 Y111.937 E0.05464
G1 X150.992 Y113.554 E0.05285
G1 X150.335 Y115.339 E0.05965
G1 X149.653 Y116.876 E0.05273
G1 X148.843 Y118.428 E0.05488
G1 X147.936 Y119.925 E0.05488
G1 X146.975 Y121.305 E0.05273
G1 X145.791 Y122.790 E0.05953
G1 X144.657 Y124.037 E0.05285
G1 X143.450 Y125.208 E0.05273
G1 X142.004 Y126.439 E0.05953
G1 X140.653 Y127.446 E0.05285
G1 X139.189 Y128.399 E0.05476
G1 X137.589 Y129.296 E0.05751
G1 X136.073 Y130.024 E0.05273
G1 X134.454 Y130.679 E0.05476
G1 X132.713 Y131.254 E0.05751
G1 X131.085 Y131.679 E0.05273
G1 X129.367 Y132.014 E0.05488
G1 X127.552 Y132.244 E0.05739
G1 X125.873 Y132.351 E0.05273
G1 X124.127 Y132.351 E0.05476
G1 X122.297 Y132.230 E0.05751
G1 X120.629 Y132.013 E0.05273
G1 X118.911 Y131.678 E0.05488
G1 X117.141 Y131.211 E0.05739
G1 X115.546 Y130.679 E0.05273
G1 X113.923 Y130.023 E0.05488
G1 X112.276 Y129.225 E0.05739
G1 X110.811 Y128.399 E0.05273
G1 X109.344 Y127.444 E0.05488
G1 X107.941 Y126.397 E0.05488
G1 X106.660 Y125.308 E0.05273
G1 X105.340 Y124.034 E0.05751
G1 X104.166 Y122.741 E0.05476
G1 X103.116 Y121.427 E0.05273
G1 X102.066 Y119.928 E0.05739
G1 X101.159 Y118.432 E0.05488
G1 X100.380 Y116.941 E0.05273
G1 X99.634 Y115.266 E0.05751
G1 X99.031 Y113.626 E0.05476
G1 X98.551 Y112.015 E0.05273
G1 X98.139 Y110.227 E0.05751
G1 X97.860 Y108.499 E0.05488
G1 X97.697 Y106.825 E0.05273
G1 X97.637 Y104.928 E0.05953
G1 X97.692 Y103.247 E0.05273
G1 X97.852 Y101.573 E0.05273
G1 X98.141 Y99.765 E0.05739
G1 X98.529 Y98.063 E0.05476
G1 X99.007 Y96.450 E0.05273
G1 X99.638 Y94.724 E0.05762
G1 X100.345 Y93.127 E0.05476
G1 X101.120 Y91.639 E0.05261
G1 X102.068 Y90.068 E0.05751
G1 X103.067 Y88.636 E0.05476
G1 X104.080 Y87.364 E0.05097
G1 F8640.000
G1 X105.397 Y85.909 E-0.45314
G1 X106.352 Y84.985 E-0.30686
G1 E-0.04000 F2100.00000
G1 Z0.800 F10800.000
G1 X142.735 Y88.551
G1 Z0.200
G1 E0.80000 F2100.00000
;TYPE:Perimeter
G1 F1200.000
G1 X143.427 Y89.313 E0.03226
G1 X144.394 Y90.526 E0.04864
G1 X145.282 Y91.798 E0.04864
G1 X146.086 Y93.125 E0.04864
G1 X146.803 Y94.500 E0.04864
G1 X147.431 Y95.919 E0.04864
G1 X147.968 Y97.376 E0.04869
G1 X148.409 Y98.862 E0.04859
G1 X148.754 Y100.374 E0.04864
G1 X149.001 Y101.905 E0.04864
G1 X149.150 Y103.450 E0.04864
G1 X149.200 Y105.000 E0.04864
G1 X149.150 Y106.550 E0.04864
G1 X149.001 Y108.095 E0.04864
G1 X148.754 Y109.626 E0.04864
G1 X148.408 Y111.140 E0.04869
G1 X147.967 Y112.626 E0.04859
G1 X147.431 Y114.081 E0.04864
G1 X146.803 Y115.500 E0.04864
G1 X146.086 Y116.875 E0.04864
G1 X145.282 Y118.202 E0.04864
G1 X144.394 Y119.474 E0.04864
G1 X143.427 Y120.687 E0.04864
G1 X142.384 Y121.836 E0.04864
G1 X141.269 Y122.916 E0.04868
G1 X140.088 Y123.920 E0.04860
G1 X138.845 Y124.848 E0.04864
G1 X137.545 Y125.695 E0.04865
G1 X136.193 Y126.456 E0.04863
G1 X134.796 Y127.129 E0.04864
G1 X133.358 Y127.711 E0.04864
G1 X131.886 Y128.200 E0.04864
G1 X130.385 Y128.593 E0.04864
G1 X128.862 Y128.890 E0.04864
G1 X127.324 Y129.088 E0.04864
G1 X125.776 Y129.188 E0.04864
G1 X124.224 Y129.188 E0.04864
G1 X122.676 Y129.088 E0.04864
G1 X121.138 Y128.890 E0.04864
G1 X119.615 Y128.593 E0.04864
G1 X118.114 Y128.200 E0.04864
G1 X116.642 Y127.711 E0.04864
G1 X115.204 Y127.129 E0.04864
G1 X113.807 Y126.456 E0.04864
G1 X112.455 Y125.694 E0.04864
G1 X111.155 Y124.848 E0.04864
G1 X109.911 Y123.920 E0.04865
G1 X108.730 Y122.915 E0.04863
G1 X107.616 Y121.836 E0.04864
G1 X106.573 Y120.687 E0.04864
G1 X105.606 Y119.474 E0.04864
G1 X104.718 Y118.202 E0.04864
G1 X103.914 Y116.875 E0.04864
G1 X103.197 Y115.500 E0.04864
G1 X102.569 Y114.081 E0.04864
G1 X102.032 Y112.624 E0.04869
G1 X101.591 Y111.138 E0.04859
G1 X101.246 Y109.626 E0.04864
G1 X100.999 Y108.095 E0.04864
G1 X100.850 Y106.550 E0.04864
G1 X100.800 Y105.000 E0.04864
G1 X100.850 Y103.450 E0.04864
G1 X100.999 Y101.905 E0.04864
G1 X101.246 Y100.374 E0.04864
G1 X101.592 Y98.860 E0.04869
G1 X102.033 Y97.374 E0.04859
G1 X102.569 Y95.919 E0.04864
G1 X103.197 Y94.500 E0.04864
G1 X103.914 Y93.125 E0.04864
G1 X104.718 Y91.798 E0.04864
G1 X105.606 Y90.526 E0.04864
G1 X106.573 Y89.313 E0.04864
G1 X107.616 Y88.164 E0.04864
G1 X108.731 Y87.084 E0.04868
G1 X109.912 Y86.080 E0.04860
G1 X111.155 Y85.152 E0.04864
M73 Q1 S76
G1 X112.455 Y84.305 E0.04865
G1 X113.807 Y83.544 E0.04863
G1 X115.204 Y82.871 E0.04864
G1 X116.642 Y82.289 E0.04864
M73 P1 R76
G1 X118.114 Y81.800 E0.04864
G1 X119.615 Y81.407 E0.04864
G1 X121.138 Y81.110 E0.04864
G1 X122.676 Y80.912 E0.04864
G1 X124.224 Y80.812 E0.04864
G1 X125.776 Y80.812 E0.04864
G1 X127.324 Y80.912 E0.04864
G1 X128.862 Y81.110 E0.04864
G1 X130.385 Y81.407 E0.04864
G1 X131.886 Y81.800 E0.04864
G1 X133.358 Y82.289 E0.04864
G1 X134.796 Y82.871 E0.04864
G1 X136.193 Y83.544 E0.04864
G1 X137.545 Y84.306 E0.04864
G1 X138.845 Y85.152 E0.04864
G1 X140.089 Y86.080 E0.04865
G1 X141.270 Y87.085 E0.04863
G1 X142.384 Y88.164 E0.04864
G1 X142.695 Y88.507 E0.01450
G1 X142.974 Y88.253 F10800.000
;TYPE:External perimeter
G1 F1200.000
G1 X143.714 Y89.068 E0.03452
G1 X144.697 Y90.300 E0.04940
G1 X145.598 Y91.592 E0.04940
G1 X146.415 Y92.939 E0.04940
G1 X147.143 Y94.336 E0.04940
G1 X147.781 Y95.777 E0.04940
G1 X148.326 Y97.257 E0.04945
G1 X148.773 Y98.766 E0.04934
G1 X149.124 Y100.302 E0.04940
G1 X149.376 Y101.857 E0.04940
G1 X149.527 Y103.425 E0.04940
G1 X149.577 Y105.000 E0.04940
G1 X149.527 Y106.575 E0.04940
G1 X149.376 Y108.143 E0.04940
G1 X149.124 Y109.698 E0.04940
G1 X148.773 Y111.236 E0.04944
G1 X148.325 Y112.745 E0.04935
G1 X147.781 Y114.223 E0.04940
G1 X147.143 Y115.664 E0.04940
G1 X146.415 Y117.061 E0.04940
G1 X145.598 Y118.408 E0.04940
G1 X144.697 Y119.700 E0.04940
G1 X143.714 Y120.932 E0.04940
G1 X142.655 Y122.098 E0.04940
G1 X141.522 Y123.195 E0.04943
G1 X140.324 Y124.215 E0.04936
G1 X139.061 Y125.158 E0.04940
G1 X137.740 Y126.017 E0.04941
G1 X136.368 Y126.790 E0.04939
G1 X134.948 Y127.474 E0.04940
G1 X133.488 Y128.065 E0.04940
G1 X131.993 Y128.561 E0.04940
G1 X130.469 Y128.961 E0.04940
G1 X128.923 Y129.262 E0.04940
G1 X127.360 Y129.464 E0.04940
G1 X125.788 Y129.565 E0.04940
G1 X124.212 Y129.565 E0.04940
G1 X122.640 Y129.464 E0.04940
G1 X121.077 Y129.262 E0.04940
G1 X119.531 Y128.961 E0.04940
G1 X118.007 Y128.561 E0.04940
G1 X116.512 Y128.065 E0.04940
G1 X115.052 Y127.474 E0.04940
G1 X113.632 Y126.790 E0.04940
G1 X112.259 Y126.017 E0.04940
G1 X110.939 Y125.158 E0.04940
G1 X109.676 Y124.215 E0.04941
G1 X108.477 Y123.194 E0.04939
G1 X107.345 Y122.098 E0.04940
G1 X106.286 Y120.932 E0.04940
G1 X105.303 Y119.700 E0.04940
G1 X104.402 Y118.408 E0.04940
G1 X103.585 Y117.061 E0.04940
G1 X102.857 Y115.664 E0.04940
G1 X102.219 Y114.223 E0.04940
G1 X101.674 Y112.743 E0.04945
G1 X101.227 Y111.234 E0.04934
G1 X100.876 Y109.698 E0.04940
G1 X100.624 Y108.143 E0.04940
G1 X100.473 Y106.575 E0.04940
G1 X100.423 Y105.000 E0.04940
G1 X100.473 Y103.425 E0.04940
G1 X100.624 Y101.857 E0.04940
G1 X100.876 Y100.302 E0.04940
G1 X101.227 Y98.764 E0.04944
G1 X101.675 Y97.255 E0.04935
G1 X102.219 Y95.777 E0.04940
G1 X102.857 Y94.336 E0.04940
G1 X103.585 Y92.939 E0.04940
G1 X104.402 Y91.592 E0.04940
G1 X105.303 Y90.300 E0.04940
G1 X106.286 Y89.068 E0.04940
G1 X107.345 Y87.902 E0.04940
G1 X108.478 Y86.805 E0.04943
G1 X109.676 Y85.785 E0.04936
G1 X110.939 Y84.842 E0.04940
G1 X112.260 Y83.983 E0.04941
G1 X113.632 Y83.210 E0.04939
G1 X115.052 Y82.526 E0.04940
G1 X116.512 Y81.935 E0.04940
G1 X118.007 Y81.439 E0.04940
G1 X119.531 Y81.039 E0.04940
G1 X121.077 Y80.738 E0.04940
G1 X122.640 Y80.536 E0.04940
G1 X124.212 Y80.435 E0.04940
G1 X125.788 Y80.435 E0.04940
G1 X127.360 Y80.536 E0.04940
G1 X128.923 Y80.738 E0.04940
G1 X130.469 Y81.039 E0.04940
G1 X131.993 Y81.439 E0.04940
G1 X133.488 Y81.935 E0.04940
G1 X134.948 Y82.526 E0.04940
G1 X136.368 Y83.210 E0.04940
G1 X137.741 Y83.983 E0.04940
G1 X139.061 Y84.842 E0.04940
G1 X140.324 Y85.785 E0.04941
G1 X141.523 Y86.806 E0.04939
G1 X142.655 Y87.902 E0.04940
G1 X142.934 Y88.209 E0.01299
G1 X142.858 Y88.636 F10800.000
G1 F8640.000
G1 X143.714 Y89.068 E-0.26809
G1 X144.697 Y90.300 E-0.36378
G1 X145.014 Y90.755 E-0.12813
G1 E-0.04000 F2100.00000
G1 Z0.800 F10800.000
G1 X139.892 Y86.074
G1 Z0.200
G1 E0.80000 F2100.00000
;TYPE:Solid infill
G1 F1200.000
G1 X142.198 Y88.380 E0.10293
G1 X143.212 Y89.496 E0.04759
G1 X144.167 Y90.695 E0.04839
G1 X144.609 Y91.328 E0.02437
G1 X138.630 Y85.349 E0.26686
G1 X137.398 Y84.547 E0.04639
G1 X137.154 Y84.410 E0.00885
G1 X145.580 Y92.836 E0.37610
G1 X145.839 Y93.263 E0.01577
G1 X146.241 Y94.034 E0.02743
G1 X135.947 Y83.739 E0.45949
G1 X134.911 Y83.241 E0.03627
G1 X146.751 Y95.081 E0.52846
G1 X147.175 Y96.041 E0.03315
G1 X133.980 Y82.846 E0.58897
G1 X133.098 Y82.501 E0.02990
G1 X147.488 Y96.891 E0.64229
G1 X147.772 Y97.712 E0.02744
G1 X132.294 Y82.234 E0.69087
G1 X131.520 Y81.997 E0.02554
M73 P1 R75
G1 X147.999 Y98.476 E0.73552
G1 X148.198 Y99.212 E0.02407
G1 X130.793 Y81.806 E0.77689
G1 X130.087 Y81.637 E0.02292
G1 X148.357 Y99.907 E0.81549
G1 X148.502 Y100.589 E0.02199
G1 X129.420 Y81.507 E0.85171
G1 X128.758 Y81.382 E0.02126
G1 X148.606 Y101.229 E0.88587
G1 X148.709 Y101.870 E0.02047
G1 X128.142 Y81.302 E0.91800
G1 X127.526 Y81.223 E0.01961
G1 X148.772 Y102.469 E0.94830
G1 X148.829 Y103.063 E0.01884
G1 X126.936 Y81.170 E0.97716
G1 X126.363 Y81.133 E0.01814
G1 X148.874 Y103.644 E1.00476
G1 X148.891 Y104.199 E0.01751
G1 X125.789 Y81.097 E1.03116
G1 X125.251 Y81.095 E0.01699
G1 X148.909 Y104.754 E1.05598
G1 X148.908 Y105.289 E0.01690
G1 X124.714 Y81.095 E1.07987
G1 X124.181 Y81.099 E0.01683
G1 X148.891 Y105.809 E1.10294
G1 X148.874 Y106.329 E0.01642
M73 Q1 S75
G1 X123.676 Y81.131 E1.12471
G1 X123.172 Y81.163 E0.01595
G1 X148.839 Y106.831 E1.14565
G1 X148.792 Y107.320 E0.01552
M73 P2 R75
M73 Q2 S75
G1 X122.669 Y81.198 E1.16596
G1 X122.194 Y81.259 E0.01513
G1 X148.745 Y107.810 E1.18507
G1 X148.684 Y108.286 E0.01515
G1 X121.718 Y81.320 E1.20359
G1 X121.243 Y81.382 E0.01513
G1 X148.609 Y108.748 E1.22147
G1 X148.535 Y109.210 E0.01477
G1 X120.790 Y81.466 E1.23834
G1 X120.341 Y81.553 E0.01445
G1 X148.454 Y109.667 E1.25482
G1 X148.355 Y110.104 E0.01415
G1 X119.892 Y81.641 E1.27042
G1 X119.455 Y81.741 E0.01414
G1 X148.255 Y110.541 E1.28546
G1 X148.155 Y110.978 E0.01415
G1 X119.030 Y81.853 E1.29999
G1 X118.605 Y81.964 E0.01388
G1 X148.037 Y111.397 E1.31370
G1 X147.914 Y111.810 E0.01363
G1 X118.180 Y82.076 E1.32716
G1 X117.777 Y82.210 E0.01340
G1 X147.791 Y112.224 E1.33966
G1 X147.663 Y112.633 E0.01352
G1 X117.374 Y82.344 E1.35193
G1 X116.971 Y82.478 E0.01340
G1 X147.519 Y113.025 E1.36347
G1 X147.374 Y113.418 E0.01320
G1 X116.577 Y82.621 E1.37461
G1 X116.195 Y82.775 E0.01301
G1 X147.230 Y113.810 E1.38522
G1 X147.074 Y114.191 E0.01298
M73 P2 R74
G1 X115.813 Y82.930 E1.39531
G1 X115.431 Y83.085 E0.01301
G1 X146.909 Y114.563 E1.40501
G1 X146.744 Y114.935 E0.01284
G1 X115.063 Y83.253 E1.41409
G1 X114.700 Y83.428 E0.01269
G1 X146.580 Y115.307 E1.42291
G1 X146.399 Y115.663 E0.01261
G1 X114.338 Y83.602 E1.43103
G1 X113.976 Y83.777 E0.01269
M73 P3 R74
M73 Q3 S75
G1 X146.215 Y116.016 E1.43899
G1 X146.031 Y116.369 E0.01256
G1 X113.630 Y83.968 E1.44619
G1 X113.287 Y84.161 E0.01244
G1 X145.847 Y116.722 E1.45330
G1 X145.645 Y117.057 E0.01234
G1 X112.944 Y84.355 E1.45962
G1 X112.600 Y84.548 E0.01244
M73 Q3 S74
G1 X145.443 Y117.391 E1.46590
G1 X145.240 Y117.725 E0.01233
G1 X112.275 Y84.760 E1.47137
G1 X111.950 Y84.972 E0.01224
G1 X145.037 Y118.059 E1.47681
G1 X144.816 Y118.375 E0.01217
G1 X111.625 Y85.183 E1.48148
G1 X111.301 Y85.396 E0.01224
G1 X144.596 Y118.691 E1.48611
G1 X144.375 Y119.007 E0.01217
G1 X110.993 Y85.625 E1.48998
G1 X110.686 Y85.855 E0.01211
G1 X144.154 Y119.322 E1.49381
G1 X143.915 Y119.621 E0.01206
G1 X110.378 Y86.084 E1.49690
G1 X110.072 Y86.314 E0.01210
G1 X143.677 Y119.920 E1.49995
G1 X143.439 Y120.218 E0.01206
G1 X109.782 Y86.561 E1.50226
G1 X109.492 Y86.808 E0.01202
G1 X143.200 Y120.516 E1.50454
G1 X142.945 Y120.798 E0.01199
G1 X109.202 Y87.055 E1.50608
G1 X108.913 Y87.302 E0.01202
G1 X142.689 Y121.079 E1.50759
G1 X142.434 Y121.360 E0.01199
G1 X108.640 Y87.566 E1.50836
G1 X108.367 Y87.831 E0.01198
G1 X142.178 Y121.641 E1.50912
G1 X141.905 Y121.905 E0.01198
M73 P4 R74
M73 Q4 S74
G1 X108.095 Y88.095 E1.50912
G1 X107.822 Y88.359 E0.01198
M73 P4 R73
G1 X141.633 Y122.169 E1.50912
G1 X141.360 Y122.434 E0.01198
G1 X107.566 Y88.640 E1.50836
G1 X107.311 Y88.921 E0.01199
G1 X141.087 Y122.698 E1.50759
G1 X140.798 Y122.945 E0.01202
G1 X107.055 Y89.202 E1.50608
G1 X106.800 Y89.484 E0.01199
G1 X140.508 Y123.192 E1.50454
G1 X140.218 Y123.439 E0.01202
G1 X106.561 Y89.782 E1.50226
G1 X106.323 Y90.080 E0.01206
G1 X139.928 Y123.686 E1.49995
G1 X139.622 Y123.916 E0.01210
G1 X106.085 Y90.379 E1.49690
G1 X105.846 Y90.678 E0.01206
G1 X139.314 Y124.145 E1.49381
G1 X139.007 Y124.375 E0.01211
M73 Q4 S73
G1 X105.625 Y90.993 E1.48998
G1 X105.404 Y91.309 E0.01217
G1 X138.699 Y124.604 E1.48611
G1 X138.375 Y124.817 E0.01224
G1 X105.184 Y91.625 E1.48148
G1 X104.963 Y91.941 E0.01217
G1 X138.050 Y125.028 E1.47681
G1 X137.725 Y125.240 E0.01224
G1 X104.760 Y92.275 E1.47137
G1 X104.557 Y92.609 E0.01233
G1 X137.400 Y125.452 E1.46590
G1 X137.056 Y125.645 E0.01244
G1 X104.355 Y92.943 E1.45962
G1 X104.153 Y93.278 E0.01234
G1 X136.713 Y125.839 E1.45330
G1 X136.370 Y126.032 E0.01244
G1 X103.969 Y93.631 E1.44619
G1 X103.785 Y93.984 E0.01256
M73 P5 R73
M73 Q5 S73
G1 X136.024 Y126.223 E1.43899
